;FLAVOR:Marlin
;TIME:1803
;Filament used: 1.05838m
;Layer height: 0.16
;MINX:72.54
;MINY:92.529
;MINZ:0.2
;MAXX:147.474
;MAXY:127.468
;MAXZ:10
;Generated with Cura_SteamEngine 4.7.1
M140 S60
M105
M190 S60
M104 S200
M105
M109 S200
M82 ;absolute extrusion mode
; Ender 3 Custom Start G-code
G92 E0 ; Reset Extruder
G28 ; Home all axes
G1 Z2.0 F3000 ; Move Z Axis up little to prevent scratching of Heat Bed
G1 X0.1 Y20 Z0.3 F5000.0 ; Move to start position
G1 X0.1 Y200.0 Z0.3 F1500.0 E15 ; Draw the first line
G1 X0.4 Y200.0 Z0.3 F5000.0 ; Move to side a little
G1 X0.4 Y20 Z0.3 F1500.0 E30 ; Draw the second line
G92 E0 ; Reset Extruder
G1 Z2.0 F3000 ; Move Z Axis up little to prevent scratching of Heat Bed
G1 X5 Y20 Z0.3 F5000.0 ; Move over to prevent blob squish
G92 E0
G92 E0
G1 F1500 E-6.5
;LAYER_COUNT:51
;LAYER:0
M107
G0 F6000 X79.138 Y96.363 Z0.2
;TYPE:SKIRT
G1 F1500 E0
G1 F1200 X79.679 Y95.93 E0.02305
G1 X80.436 Y95.376 E0.05425
G1 X81.499 Y94.748 E0.09531
G1 X81.832 Y94.579 E0.10773
G1 X82.377 Y94.315 E0.12787
G1 X82.727 Y94.15 E0.14074
G1 X83.476 Y93.81 E0.1681
G1 X84.346 Y93.459 E0.1993
G1 X85.242 Y93.184 E0.23048
G1 X85.795 Y93.055 E0.24936
G1 X86.45 Y92.92 E0.27161
G1 X87.008 Y92.814 E0.2905
G1 X87.704 Y92.691 E0.31401
G1 X88.633 Y92.567 E0.34518
G1 X89.973 Y92.529 E0.38977
G1 X90.244 Y92.539 E0.39879
G1 X90.961 Y92.575 E0.42266
G1 X91.411 Y92.605 E0.43766
G1 X93.039 Y92.73 E0.49197
G1 X95.55 Y92.887 E0.57565
G1 X98.108 Y92.975 E0.66078
G1 X100.627 Y92.99 E0.74456
G1 X103.122 Y92.934 E0.82757
G1 X105.649 Y92.806 E0.91172
G1 X107.896 Y92.633 E0.98668
G1 X108.635 Y92.567 E1.01136
G1 X109.968 Y92.529 E1.05571
G1 X110.244 Y92.539 E1.0649
G1 X110.961 Y92.575 E1.08877
G1 X111.411 Y92.605 E1.10378
G1 X113.039 Y92.73 E1.15808
G1 X115.55 Y92.887 E1.24176
G1 X118.108 Y92.975 E1.32689
G1 X120.627 Y92.99 E1.41067
G1 X123.122 Y92.934 E1.49368
G1 X125.649 Y92.806 E1.57784
G1 X127.896 Y92.633 E1.65279
G1 X128.635 Y92.567 E1.67747
G1 X129.968 Y92.529 E1.72182
G1 X130.244 Y92.539 E1.73101
G1 X130.78 Y92.565 E1.74886
G1 X131.393 Y92.604 E1.76929
G1 X132.083 Y92.657 E1.7923
G1 X133.015 Y92.769 E1.82353
G1 X134.178 Y93.024 E1.86313
G1 X134.261 Y93.047 E1.86599
G1 X134.593 Y93.145 E1.8775
G1 X135.232 Y93.345 E1.89977
G1 X135.695 Y93.497 E1.91598
G1 X136.34 Y93.717 E1.93865
G1 X137.214 Y94.057 E1.96984
G1 X138.31 Y94.614 E2.01073
G1 X138.391 Y94.661 E2.01385
G1 X138.661 Y94.823 E2.02432
G1 X139.214 Y95.166 E2.04596
G1 X139.554 Y95.383 E2.05938
G1 X140.177 Y95.79 E2.08413
G1 X140.94 Y96.336 E2.11533
G1 X141.782 Y97.067 E2.15242
G1 X141.833 Y97.116 E2.15477
G1 X142.134 Y97.416 E2.16891
G1 X142.585 Y97.885 E2.19055
G1 X142.798 Y98.111 E2.20088
G1 X142.923 Y98.246 E2.207
G1 X143.407 Y98.777 E2.23089
G1 X144.008 Y99.496 E2.26206
G1 X144.689 Y100.493 E2.30222
G1 X144.738 Y100.574 E2.30537
G1 X144.898 Y100.847 E2.31589
G1 X145.137 Y101.269 E2.33202
G1 X145.44 Y101.824 E2.35305
G1 X145.751 Y102.407 E2.37503
G1 X146.157 Y103.252 E2.40621
G1 X146.435 Y103.97 E2.43182
G1 X146.475 Y104.085 E2.43587
G1 X146.702 Y104.817 E2.46136
G1 X146.864 Y105.417 E2.48203
G1 X146.95 Y105.752 E2.49353
G1 X147.158 Y106.614 E2.52303
G1 X147.339 Y107.535 E2.55425
G1 X147.455 Y108.74 E2.59451
G1 X147.459 Y108.838 E2.59777
G1 X147.467 Y109.144 E2.60795
G1 X147.474 Y109.748 E2.62804
G1 X147.473 Y110.265 E2.64524
G1 X147.463 Y110.966 E2.66856
G1 X147.41 Y111.902 E2.69974
G1 X147.261 Y112.912 E2.73369
G1 X147.246 Y112.989 E2.7363
G1 X147.141 Y113.472 E2.75274
G1 X147.015 Y113.993 E2.77057
G1 X146.863 Y114.583 E2.79084
G1 X146.681 Y115.256 E2.81402
G1 X146.397 Y116.15 E2.84522
G1 X145.924 Y117.257 E2.88526
G1 X145.882 Y117.342 E2.88842
G1 X145.72 Y117.656 E2.90017
G1 X145.438 Y118.183 E2.92005
G1 X145.282 Y118.469 E2.93088
G1 X145.185 Y118.643 E2.93751
G1 X144.839 Y119.251 E2.96078
G1 X144.341 Y120.045 E2.99195
G1 X143.577 Y121.031 E3.03344
G1 X143.333 Y121.306 E3.04566
G1 X142.889 Y121.791 E3.06753
G1 X142.531 Y122.171 E3.0849
G1 X142.089 Y122.628 E3.10604
G1 X141.409 Y123.274 E3.13724
G1 X140.798 Y123.769 E3.16339
G1 X140.709 Y123.836 E3.1671
G1 X140.101 Y124.263 E3.19181
G1 X139.547 Y124.623 E3.21378
G1 X139.168 Y124.863 E3.22871
G1 X138.555 Y125.24 E3.25264
G1 X137.735 Y125.697 E3.28386
G1 X136.654 Y126.17 E3.32311
G1 X136.558 Y126.206 E3.32652
G1 X136.24 Y126.32 E3.33776
G1 X135.761 Y126.483 E3.35458
G1 X135.303 Y126.632 E3.3706
G1 X134.486 Y126.885 E3.39905
G1 X133.579 Y127.124 E3.43025
G1 X132.474 Y127.306 E3.46749
G1 X132.412 Y127.313 E3.46957
G1 X132.011 Y127.35 E3.48296
G1 X131.298 Y127.404 E3.50675
G1 X130.873 Y127.429 E3.52091
G1 X130.129 Y127.464 E3.54568
G1 X129.191 Y127.468 E3.57688
G1 X128.596 Y127.429 E3.59671
G1 X128.297 Y127.401 E3.6067
G1 X125.692 Y127.195 E3.69361
G1 X123.158 Y127.066 E3.778
G1 X120.677 Y127.011 E3.86054
G1 X118.148 Y127.025 E3.94466
G1 X115.616 Y127.111 E4.02892
G1 X113.082 Y127.268 E4.11336
G1 X111.261 Y127.406 E4.1741
G1 X110.873 Y127.429 E4.18703
G1 X110.13 Y127.464 E4.21177
G1 X109.192 Y127.468 E4.24297
G1 X108.596 Y127.429 E4.26283
G1 X108.297 Y127.401 E4.27282
G1 X105.692 Y127.195 E4.35973
G1 X103.158 Y127.066 E4.44412
G1 X100.677 Y127.011 E4.52666
G1 X98.148 Y127.025 E4.61078
G1 X95.616 Y127.111 E4.69504
G1 X93.082 Y127.268 E4.77949
G1 X91.261 Y127.406 E4.84023
G1 X90.873 Y127.429 E4.85315
G1 X90.131 Y127.464 E4.87786
G1 X89.193 Y127.468 E4.90906
G1 X88.145 Y127.378 E4.94404
G1 X88.093 Y127.371 E4.94579
G1 X87.63 Y127.298 E4.96138
G1 X86.887 Y127.165 E4.98648
G1 X86.523 Y127.094 E4.99882
G1 X85.848 Y126.957 E5.02173
G1 X84.938 Y126.732 E5.0529
G1 X84.087 Y126.444 E5.08279
G1 X84.022 Y126.419 E5.0851
G1 X83.415 Y126.164 E5.107
G1 X82.725 Y125.849 E5.13223
G1 X82.36 Y125.676 E5.14566
G1 X81.743 Y125.376 E5.16848
G1 X80.918 Y124.93 E5.19967
G1 X79.815 Y124.178 E5.24407
G1 X79.571 Y123.987 E5.25438
G1 X79.118 Y123.622 E5.27373
G1 X78.712 Y123.286 E5.29126
G1 X78.176 Y122.831 E5.31464
G1 X77.488 Y122.194 E5.34583
G1 X76.856 Y121.501 E5.37702
G1 X76.479 Y121.024 E5.39724
G1 X76.076 Y120.484 E5.41966
G1 X75.717 Y119.989 E5.43999
G1 X75.346 Y119.462 E5.46143
G1 X74.84 Y118.673 E5.4926
G1 X74.273 Y117.56 E5.53415
G1 X74.116 Y117.197 E5.5473
G1 X73.899 Y116.668 E5.56632
G1 X73.715 Y116.202 E5.58299
G1 X73.449 Y115.498 E5.60802
G1 X73.155 Y114.607 E5.63922
G1 X72.903 Y113.502 E5.67692
G1 X72.892 Y113.439 E5.67905
G1 X72.833 Y113.06 E5.6918
G1 X72.739 Y112.382 E5.71457
G1 X72.672 Y111.838 E5.7328
G1 X72.604 Y111.23 E5.75315
G1 X72.54 Y110.294 E5.78435
G1 X72.575 Y109.084 E5.82461
G1 X72.613 Y108.681 E5.83808
G1 X72.672 Y108.157 E5.85561
G1 X72.756 Y107.502 E5.87758
G1 X72.852 Y106.828 E5.90022
G1 X73.024 Y105.906 E5.93142
G1 X73.356 Y104.756 E5.97123
G1 X73.481 Y104.411 E5.98343
G1 X73.745 Y103.722 E6.00797
G1 X73.914 Y103.298 E6.02316
G1 X74.171 Y102.676 E6.04554
G1 X74.565 Y101.826 E6.0767
G1 X75.168 Y100.8 E6.11628
G1 X75.225 Y100.714 E6.11971
G1 X75.417 Y100.433 E6.13103
G1 X75.806 Y99.885 E6.15338
G1 X75.98 Y99.645 E6.16324
G1 X76.488 Y98.966 E6.19145
G1 X77.082 Y98.24 E6.22265
G1 X77.649 Y97.65 E6.24986
G1 X77.678 Y97.622 E6.25121
G1 X78.204 Y97.146 E6.2748
G1 X78.811 Y96.632 E6.30126
G1 X79.138 Y96.363 E6.31534
G0 F6000 X79.388 Y96.675
G1 F1200 X79.929 Y96.242 E6.33839
G1 X80.672 Y95.699 E6.36899
G1 X81.683 Y95.103 E6.40803
G1 X82.007 Y94.939 E6.42011
G1 X82.548 Y94.677 E6.4401
G1 X83.043 Y94.445 E6.45828
G1 X83.641 Y94.174 E6.48012
G1 X84.495 Y93.831 E6.51073
G1 X85.376 Y93.563 E6.54136
G1 X85.876 Y93.447 E6.55843
G1 X86.531 Y93.312 E6.58067
G1 X87.077 Y93.208 E6.59916
G1 X87.773 Y93.085 E6.62266
G1 X88.686 Y92.964 E6.6533
G1 X89.96 Y92.929 E6.69569
G1 X90.225 Y92.938 E6.70451
G1 X90.761 Y92.964 E6.72235
G1 X91.258 Y92.995 E6.73892
G1 X92.981 Y93.127 E6.79639
G1 X95.547 Y93.288 E6.8819
G1 X98.092 Y93.375 E6.9666
G1 X100.634 Y93.39 E7.05115
G1 X103.15 Y93.333 E7.13485
G1 X105.663 Y93.206 E7.21854
G1 X107.884 Y93.036 E7.29263
G1 X108.671 Y92.965 E7.31891
G1 X109.955 Y92.928 E7.36164
G1 X110.225 Y92.938 E7.37062
G1 X110.761 Y92.964 E7.38847
G1 X111.258 Y92.995 E7.40503
G1 X112.981 Y93.127 E7.46251
G1 X115.547 Y93.288 E7.54802
G1 X118.092 Y93.375 E7.63272
G1 X120.634 Y93.39 E7.71727
G1 X123.15 Y93.333 E7.80097
G1 X125.663 Y93.206 E7.88466
G1 X127.884 Y93.036 E7.95875
G1 X128.671 Y92.965 E7.98503
G1 X129.955 Y92.928 E8.02775
G1 X130.225 Y92.938 E8.03674
G1 X130.761 Y92.964 E8.05459
G1 X131.363 Y93.003 E8.07465
G1 X132.053 Y93.056 E8.09767
G1 X132.967 Y93.166 E8.12829
G1 X134.072 Y93.41 E8.16593
G1 X134.155 Y93.433 E8.16879
G1 X134.474 Y93.527 E8.17985
G1 X135.108 Y93.725 E8.20194
G1 X135.43 Y93.83 E8.21321
G1 X136.211 Y94.096 E8.24065
G1 X137.069 Y94.43 E8.27127
G1 X138.109 Y94.96 E8.3101
G1 X138.19 Y95.007 E8.31321
G1 X138.45 Y95.163 E8.3233
G1 X138.999 Y95.503 E8.34477
G1 X139.335 Y95.718 E8.35804
G1 X139.958 Y96.125 E8.38279
G1 X140.707 Y96.661 E8.41343
G1 X141.505 Y97.355 E8.4486
G1 X141.556 Y97.404 E8.45095
G1 X141.846 Y97.694 E8.46459
G1 X142.294 Y98.16 E8.48609
G1 X142.627 Y98.515 E8.50228
G1 X143.111 Y99.046 E8.52618
G1 X143.701 Y99.753 E8.55681
G1 X144.347 Y100.7 E8.59493
G1 X144.396 Y100.781 E8.59808
G1 X144.549 Y101.044 E8.6082
G1 X144.866 Y101.606 E8.62966
G1 X145.087 Y102.012 E8.64504
G1 X145.398 Y102.595 E8.66701
G1 X145.796 Y103.425 E8.69763
G1 X146.058 Y104.102 E8.72178
G1 X146.098 Y104.217 E8.72582
G1 X146.316 Y104.921 E8.75034
G1 X146.439 Y105.374 E8.76595
G1 X146.601 Y106.006 E8.78765
G1 X146.77 Y106.708 E8.81166
G1 X146.946 Y107.612 E8.8423
G1 X147.055 Y108.757 E8.88055
G1 X147.067 Y109.149 E8.8936
G1 X147.074 Y109.748 E8.91352
G1 X147.073 Y110.259 E8.93052
G1 X147.063 Y110.96 E8.95383
G1 X147.01 Y111.879 E8.98445
G1 X146.868 Y112.836 E9.01663
G1 X146.853 Y112.913 E9.01924
G1 X146.752 Y113.378 E9.03506
G1 X146.626 Y113.899 E9.05289
G1 X146.503 Y114.377 E9.06931
G1 X146.294 Y115.151 E9.09597
G1 X146.016 Y116.029 E9.12661
G1 X145.565 Y117.08 E9.16464
G1 X145.523 Y117.165 E9.1678
G1 X145.368 Y117.467 E9.17909
G1 X145.087 Y117.992 E9.19889
G1 X144.931 Y118.278 E9.20973
G1 X144.838 Y118.445 E9.21609
G1 X144.492 Y119.053 E9.23935
G1 X144.002 Y119.832 E9.26996
G1 X143.276 Y120.768 E9.30936
G1 X143.038 Y121.037 E9.32131
G1 X142.597 Y121.518 E9.34301
G1 X142.358 Y121.773 E9.35464
G1 X141.801 Y122.35 E9.38131
G1 X141.133 Y122.984 E9.41194
G1 X140.557 Y123.45 E9.43658
G1 X140.468 Y123.517 E9.44029
G1 X139.882 Y123.927 E9.46408
G1 X139.332 Y124.285 E9.4859
G1 X138.958 Y124.522 E9.50063
G1 X138.345 Y124.899 E9.52457
G1 X137.541 Y125.347 E9.55518
G1 X136.514 Y125.795 E9.59245
G1 X136.418 Y125.831 E9.59586
G1 X136.111 Y125.941 E9.6067
G1 X135.632 Y126.104 E9.62353
G1 X135.048 Y126.293 E9.64395
G1 X134.368 Y126.503 E9.66762
G1 X133.477 Y126.736 E9.69825
G1 X132.429 Y126.908 E9.73357
G1 X131.981 Y126.952 E9.74854
G1 X131.415 Y126.995 E9.76742
G1 X130.854 Y127.029 E9.78612
G1 X130.11 Y127.064 E9.81089
G1 X129.189 Y127.068 E9.84152
G1 X128.633 Y127.031 E9.86006
G1 X128.295 Y127 E9.87134
G1 X125.707 Y126.795 E9.95769
G1 X123.186 Y126.667 E10.04165
G1 X120.683 Y126.611 E10.12492
G1 X118.133 Y126.625 E10.20973
G1 X115.612 Y126.711 E10.29363
G1 X113.03 Y126.871 E10.37967
G1 X111.236 Y127.007 E10.43951
G1 X110.854 Y127.029 E10.45224
G1 X110.111 Y127.064 E10.47698
G1 X109.19 Y127.068 E10.50761
G1 X108.633 Y127.031 E10.52618
G1 X108.295 Y127 E10.53747
G1 X105.707 Y126.795 E10.62382
G1 X103.186 Y126.667 E10.70777
G1 X100.683 Y126.611 E10.79104
G1 X98.133 Y126.625 E10.87586
G1 X95.612 Y126.711 E10.95976
G1 X93.03 Y126.871 E11.0458
G1 X91.236 Y127.007 E11.10564
G1 X90.854 Y127.029 E11.11836
G1 X90.112 Y127.064 E11.14307
G1 X89.192 Y127.068 E11.17367
G1 X88.199 Y126.981 E11.20682
G1 X88.147 Y126.974 E11.20857
G1 X87.7 Y126.904 E11.22362
G1 X86.962 Y126.772 E11.24855
G1 X86.603 Y126.702 E11.26072
G1 X85.928 Y126.565 E11.28363
G1 X85.034 Y126.343 E11.31426
G1 X84.231 Y126.07 E11.34247
G1 X84.166 Y126.045 E11.34479
G1 X83.581 Y125.8 E11.36588
G1 X82.896 Y125.487 E11.39093
G1 X82.535 Y125.316 E11.40422
G1 X81.918 Y125.016 E11.42704
G1 X81.108 Y124.578 E11.45767
G1 X80.06 Y123.861 E11.4999
G1 X79.822 Y123.675 E11.50995
G1 X79.272 Y123.231 E11.53346
G1 X78.971 Y122.981 E11.54647
G1 X78.435 Y122.526 E11.56985
G1 X77.76 Y121.9 E11.60047
G1 X77.141 Y121.218 E11.63111
G1 X76.8 Y120.785 E11.64944
G1 X76.313 Y120.131 E11.67656
G1 X76.044 Y119.759 E11.69183
G1 X75.673 Y119.232 E11.71326
G1 X75.177 Y118.457 E11.74387
G1 X74.639 Y117.399 E11.78334
G1 X74.486 Y117.045 E11.79617
G1 X74.27 Y116.52 E11.81505
G1 X74.158 Y116.239 E11.82511
G1 X74.089 Y116.061 E11.83146
G1 X73.823 Y115.357 E11.85649
G1 X73.536 Y114.482 E11.88712
G1 X73.297 Y113.433 E11.92291
G1 X73.229 Y113.005 E11.93732
G1 X73.136 Y112.332 E11.95992
G1 X73.086 Y111.933 E11.97329
G1 X73.002 Y111.185 E11.99833
G1 X72.939 Y110.267 E12.02893
G1 X72.973 Y109.118 E12.06716
G1 X72.981 Y109.023 E12.07033
G1 X73.011 Y108.726 E12.08026
G1 X73.089 Y108.038 E12.10329
G1 X73.152 Y107.558 E12.11939
G1 X73.248 Y106.884 E12.14204
G1 X73.417 Y105.979 E12.17266
G1 X73.733 Y104.888 E12.21044
G1 X73.855 Y104.554 E12.22226
G1 X74.117 Y103.869 E12.24666
G1 X74.283 Y103.451 E12.26162
G1 X74.54 Y102.829 E12.284
G1 X74.929 Y101.994 E12.31464
G1 X75.501 Y101.021 E12.35218
G1 X75.558 Y100.935 E12.35561
G1 X75.744 Y100.665 E12.36651
G1 X76.13 Y100.12 E12.38873
G1 X76.304 Y99.88 E12.39859
G1 X76.808 Y99.206 E12.42658
G1 X77.392 Y98.494 E12.45721
G1 X77.927 Y97.937 E12.48289
G1 X77.956 Y97.909 E12.48423
G1 X78.463 Y97.451 E12.50696
G1 X79.066 Y96.94 E12.53325
G1 X79.388 Y96.675 E12.54712
G0 F6000 X79.507 Y97.094
G1 F1200 X80.179 Y96.555 E12.57577
G1 X80.909 Y96.022 E12.60583
G1 X81.867 Y95.458 E12.64281
G1 X82.182 Y95.299 E12.65454
G1 X82.719 Y95.039 E12.67439
G1 X83.208 Y94.809 E12.69236
G1 X83.806 Y94.538 E12.7142
G1 X84.644 Y94.202 E12.74423
G1 X85.509 Y93.942 E12.77427
G1 X85.957 Y93.839 E12.78956
G1 X86.612 Y93.704 E12.8118
G1 X87.147 Y93.602 E12.82992
G1 X87.843 Y93.479 E12.85342
G1 X88.738 Y93.361 E12.88345
G1 X89.947 Y93.328 E12.92368
G1 X90.205 Y93.338 E12.93226
G1 X90.909 Y93.373 E12.95571
G1 X91.232 Y93.394 E12.96647
G1 X92.923 Y93.524 E13.02288
G1 X95.543 Y93.688 E13.11019
G1 X98.076 Y93.775 E13.19449
G1 X100.64 Y93.79 E13.27977
G1 X103.144 Y93.734 E13.36308
G1 X105.715 Y93.603 E13.4487
G1 X107.95 Y93.432 E13.52325
G1 X108.707 Y93.364 E13.54853
G1 X109.942 Y93.328 E13.58963
G1 X110.205 Y93.338 E13.59838
G1 X110.909 Y93.373 E13.62182
G1 X111.232 Y93.394 E13.63259
G1 X112.923 Y93.524 E13.689
G1 X115.543 Y93.688 E13.77631
G1 X118.076 Y93.775 E13.86061
G1 X120.64 Y93.79 E13.94589
G1 X123.144 Y93.734 E14.02919
G1 X125.715 Y93.603 E14.11482
G1 X127.95 Y93.432 E14.18937
G1 X128.707 Y93.364 E14.21465
G1 X129.942 Y93.328 E14.25574
G1 X130.205 Y93.338 E14.2645
G1 X130.741 Y93.364 E14.28234
G1 X131.221 Y93.394 E14.29834
G1 X132.022 Y93.455 E14.32506
G1 X132.919 Y93.564 E14.35511
G1 X133.965 Y93.795 E14.39074
G1 X134.048 Y93.818 E14.39361
G1 X134.355 Y93.909 E14.40426
G1 X134.984 Y94.106 E14.42618
G1 X135.437 Y94.254 E14.44203
G1 X136.082 Y94.474 E14.4647
G1 X136.923 Y94.803 E14.49473
G1 X137.908 Y95.306 E14.53152
G1 X137.989 Y95.353 E14.53463
G1 X138.239 Y95.503 E14.54433
G1 X138.785 Y95.841 E14.56569
G1 X139.117 Y96.053 E14.57879
G1 X139.74 Y96.46 E14.60354
G1 X140.473 Y96.987 E14.63357
G1 X141.228 Y97.644 E14.66685
G1 X141.279 Y97.693 E14.66921
G1 X141.558 Y97.971 E14.68231
G1 X142.003 Y98.434 E14.70366
G1 X142.216 Y98.66 E14.71399
G1 X142.815 Y99.316 E14.74354
G1 X143.394 Y100.01 E14.7736
G1 X144.004 Y100.907 E14.80968
G1 X144.053 Y100.988 E14.81283
G1 X144.201 Y101.241 E14.82258
G1 X144.515 Y101.798 E14.84384
G1 X144.735 Y102.2 E14.85909
G1 X145.046 Y102.783 E14.88106
G1 X145.435 Y103.598 E14.9111
G1 X145.68 Y104.233 E14.93374
G1 X145.72 Y104.348 E14.93779
G1 X145.93 Y105.026 E14.96139
G1 X146.089 Y105.616 E14.98172
G1 X146.212 Y106.1 E14.99833
G1 X146.381 Y106.802 E15.02234
G1 X146.553 Y107.688 E15.05236
G1 X146.656 Y108.773 E15.08861
G1 X146.66 Y108.871 E15.09187
G1 X146.667 Y109.154 E15.10129
G1 X146.674 Y109.748 E15.12105
G1 X146.673 Y110.253 E15.13784
G1 X146.663 Y110.954 E15.16116
