;FLAVOR:Marlin
;TIME:1008
;Filament used: 0.666329m
;Layer height: 0.16
;MINX:82.515
;MINY:91.531
;MINZ:0.2
;MAXX:137.485
;MAXY:128.478
;MAXZ:9.88
;Generated with Cura_SteamEngine 4.7.1
M140 S60
M105
M190 S60
M104 S200
M105
M109 S200
M82 ;absolute extrusion mode
; Ender 3 Custom Start G-code
G92 E0 ; Reset Extruder
G28 ; Home all axes
G1 Z2.0 F3000 ; Move Z Axis up little to prevent scratching of Heat Bed
G1 X0.1 Y20 Z0.3 F5000.0 ; Move to start position
G1 X0.1 Y200.0 Z0.3 F1500.0 E15 ; Draw the first line
G1 X0.4 Y200.0 Z0.3 F5000.0 ; Move to side a little
G1 X0.4 Y20 Z0.3 F1500.0 E30 ; Draw the second line
G92 E0 ; Reset Extruder
G1 Z2.0 F3000 ; Move Z Axis up little to prevent scratching of Heat Bed
G1 X5 Y20 Z0.3 F5000.0 ; Move over to prevent blob squish
G92 E0
G92 E0
G1 F1500 E-6.5
;LAYER_COUNT:51
;LAYER:0
M107
G0 F6000 X88.201 Y98.112 Z0.2
;TYPE:SKIRT
G1 F1500 E0
G1 F1200 X88.99 Y97.457 E0.03411
G1 X89.693 Y96.926 E0.06341
G1 X89.998 Y96.703 E0.07598
G1 X90.395 Y96.424 E0.09211
G1 X91.185 Y95.918 E0.12332
G1 X92.046 Y95.466 E0.15566
G1 X92.845 Y95.091 E0.18502
G1 X93.174 Y94.943 E0.19702
G1 X93.595 Y94.762 E0.21226
G1 X94.472 Y94.429 E0.24346
G1 X95.434 Y94.157 E0.27671
G1 X96.306 Y93.953 E0.3065
G1 X96.664 Y93.876 E0.31867
G1 X97.116 Y93.786 E0.334
G1 X98.043 Y93.642 E0.36521
G1 X99.045 Y93.576 E0.3986
G1 X101.105 Y93.536 E0.46713
G1 X101.166 Y93.532 E0.46917
G1 X102.274 Y93.516 E0.50602
G1 X104.796 Y93.409 E0.58998
G1 X107.291 Y93.232 E0.67317
G1 X109.789 Y92.984 E0.75666
G1 X112.278 Y92.666 E0.84012
G1 X114.827 Y92.265 E0.92594
G1 X116.341 Y91.993 E0.97711
G1 X117.459 Y91.781 E1.01495
G1 X117.757 Y91.729 E1.02502
G1 X117.906 Y91.705 E1.03004
G1 X118.468 Y91.629 E1.0489
G1 X118.809 Y91.592 E1.06031
G1 X119.745 Y91.531 E1.0915
G1 X120.986 Y91.573 E1.1328
G1 X121.152 Y91.588 E1.13835
G1 X121.676 Y91.648 E1.15589
G1 X122.007 Y91.694 E1.167
G1 X122.93 Y91.862 E1.19821
G1 X124.187 Y92.228 E1.24175
G1 X124.302 Y92.269 E1.24581
G1 X124.766 Y92.446 E1.26233
G1 X125.104 Y92.584 E1.27447
G1 X125.956 Y92.975 E1.30565
G1 X126.995 Y93.58 E1.34564
G1 X127.115 Y93.659 E1.35042
G1 X127.555 Y93.965 E1.36824
G1 X127.826 Y94.163 E1.37941
G1 X128.559 Y94.748 E1.4106
G1 X129.414 Y95.578 E1.45023
G1 X129.618 Y95.799 E1.46024
G1 X131.42 Y97.702 E1.5474
G1 X131.63 Y97.914 E1.55733
G1 X131.824 Y98.114 E1.5666
G1 X132.906 Y99.26 E1.61902
G1 X133.16 Y99.538 E1.63154
G1 X133.45 Y99.867 E1.64613
G1 X134.039 Y100.597 E1.67733
G1 X134.589 Y101.413 E1.71006
G1 X135.066 Y102.195 E1.74052
G1 X135.26 Y102.525 E1.75325
G1 X135.474 Y102.905 E1.76776
G1 X135.899 Y103.741 E1.79895
G1 X136.268 Y104.658 E1.83183
G1 X136.576 Y105.535 E1.86274
G1 X136.688 Y105.871 E1.87452
G1 X136.817 Y106.28 E1.88879
G1 X137.06 Y107.186 E1.91999
G1 X137.236 Y108.186 E1.95376
G1 X137.353 Y109.096 E1.98427
G1 X137.394 Y109.458 E1.99639
G1 X137.436 Y109.9 E2.01116
G1 X137.485 Y110.837 E2.04237
G1 X137.448 Y111.838 E2.07568
G1 X137.39 Y112.547 E2.09934
G1 X137.346 Y112.981 E2.11385
G1 X137.254 Y113.736 E2.13915
G1 X137.101 Y114.661 E2.17033
G1 X136.853 Y115.626 E2.20347
G1 X136.676 Y116.204 E2.22358
G1 X136.58 Y116.503 E2.23402
G1 X136.376 Y117.107 E2.25522
G1 X136.038 Y117.982 E2.28642
G1 X135.603 Y118.869 E2.31928
G1 X135.164 Y119.671 E2.34969
G1 X134.967 Y120.016 E2.3629
G1 X134.736 Y120.404 E2.37792
G1 X134.222 Y121.189 E2.40913
G1 X133.618 Y121.956 E2.4416
G1 X133.021 Y122.649 E2.47203
G1 X132.776 Y122.925 E2.4843
G1 X132.482 Y123.244 E2.49873
G1 X131.817 Y123.906 E2.52994
G1 X131.041 Y124.553 E2.56354
G1 X130.312 Y125.106 E2.59398
G1 X130.016 Y125.323 E2.60618
G1 X129.647 Y125.584 E2.62122
G1 X128.859 Y126.092 E2.6524
G1 X127.985 Y126.553 E2.68526
G1 X127.166 Y126.939 E2.71538
G1 X126.821 Y127.094 E2.72796
G1 X126.414 Y127.269 E2.74269
G1 X125.537 Y127.603 E2.77391
G1 X124.561 Y127.878 E2.80763
G1 X123.658 Y128.088 E2.83847
G1 X123.318 Y128.161 E2.85003
G1 X122.892 Y128.246 E2.86448
G1 X121.966 Y128.391 E2.89566
G1 X120.971 Y128.457 E2.92882
G1 X120.019 Y128.477 E2.96049
G1 X119.62 Y128.478 E2.97376
G1 X119.161 Y128.471 E2.98903
G1 X118.548 Y128.444 E3.00944
G1 X117.741 Y128.386 E3.03635
G1 X116.283 Y128.263 E3.08502
G1 X113.76 Y128.121 E3.16906
G1 X111.239 Y128.05 E3.25295
G1 X108.714 Y128.052 E3.33693
G1 X106.268 Y128.122 E3.41831
G1 X102.651 Y128.348 E3.53885
G1 X101.726 Y128.423 E3.56972
G1 X101.052 Y128.457 E3.59216
G1 X100.046 Y128.477 E3.62563
G1 X99.679 Y128.478 E3.63784
G1 X99.233 Y128.472 E3.65267
G1 X98.297 Y128.419 E3.68385
G1 X97.316 Y128.277 E3.71682
G1 X96.437 Y128.109 E3.74659
G1 X96.039 Y128.026 E3.76011
G1 X95.582 Y127.921 E3.7757
G1 X94.678 Y127.672 E3.80689
G1 X93.782 Y127.34 E3.83867
G1 X92.928 Y126.981 E3.86948
G1 X92.586 Y126.831 E3.88191
G1 X92.202 Y126.654 E3.89597
G1 X91.368 Y126.225 E3.92716
G1 X90.505 Y125.68 E3.96111
G1 X89.761 Y125.16 E3.9913
G1 X89.49 Y124.964 E4.00242
G1 X89.125 Y124.692 E4.01756
G1 X88.398 Y124.1 E4.04875
G1 X87.723 Y123.449 E4.07994
G1 X87.678 Y123.397 E4.08223
G1 X87.677 Y123.398 E4.08227
G1 X87.069 Y122.75 E4.11183
G1 X86.807 Y122.46 E4.12483
G1 X86.503 Y122.112 E4.14019
G1 X85.916 Y121.38 E4.1714
G1 X85.37 Y120.561 E4.20414
G1 X84.893 Y119.771 E4.23483
G1 X84.72 Y119.473 E4.2463
G1 X84.511 Y119.101 E4.26049
G1 X84.087 Y118.264 E4.29169
G1 X83.708 Y117.317 E4.32562
G1 X83.408 Y116.452 E4.35607
G1 X83.295 Y116.107 E4.36815
G1 X83.161 Y115.675 E4.38319
G1 X82.921 Y114.768 E4.41439
G1 X82.75 Y113.768 E4.44814
G1 X82.641 Y112.888 E4.47763
G1 X82.605 Y112.555 E4.48877
G1 X82.562 Y112.093 E4.5042
G1 X82.515 Y111.157 E4.53537
G1 X82.555 Y110.137 E4.56933
G1 X82.633 Y109.225 E4.59977
G1 X82.67 Y108.859 E4.612
G1 X82.722 Y108.423 E4.62661
G1 X82.873 Y107.498 E4.65778
G1 X83.118 Y106.535 E4.69083
G1 X83.382 Y105.664 E4.7211
G1 X83.5 Y105.297 E4.73392
G1 X83.647 Y104.867 E4.74904
G1 X83.988 Y103.993 E4.78024
G1 X84.42 Y103.119 E4.81267
G1 X84.855 Y102.329 E4.84266
G1 X85.056 Y101.979 E4.85609
G1 X85.285 Y101.597 E4.8709
G1 X85.801 Y100.814 E4.90209
G1 X86.395 Y100.063 E4.93394
G1 X86.984 Y99.381 E4.96391
G1 X87.225 Y99.111 E4.97595
G1 X87.536 Y98.774 E4.9912
G1 X88.201 Y98.112 E5.02241
G0 F6000 X88.483 Y98.396
G1 F1200 X89.231 Y97.776 E5.05472
G1 X89.934 Y97.245 E5.08402
G1 X90.228 Y97.03 E5.09614
G1 X90.625 Y96.751 E5.11228
G1 X91.401 Y96.255 E5.14291
G1 X92.216 Y95.828 E5.17351
G1 X93.015 Y95.453 E5.20287
G1 X93.332 Y95.311 E5.21442
G1 X93.753 Y95.13 E5.22966
G1 X94.614 Y94.803 E5.2603
G1 X95.525 Y94.547 E5.29177
G1 X96.397 Y94.343 E5.32155
G1 X96.742 Y94.268 E5.3333
G1 X97.194 Y94.178 E5.34863
G1 X98.104 Y94.038 E5.37925
G1 X99.053 Y93.976 E5.41088
G1 X101.113 Y93.935 E5.47941
G1 X101.172 Y93.932 E5.48137
G1 X102.297 Y93.916 E5.5188
G1 X104.805 Y93.809 E5.60229
G1 X107.322 Y93.631 E5.68621
G1 X109.846 Y93.381 E5.77057
G1 X112.354 Y93.06 E5.85467
G1 X114.872 Y92.664 E5.93945
G1 X116.377 Y92.393 E5.99031
G1 X117.533 Y92.174 E6.02944
G1 X117.82 Y92.124 E6.03913
G1 X117.969 Y92.1 E6.04415
G1 X118.512 Y92.027 E6.06237
G1 X118.853 Y91.99 E6.07378
G1 X119.771 Y91.93 E6.10438
G1 X120.95 Y91.971 E6.14362
G1 X121.116 Y91.986 E6.14916
G1 X121.621 Y92.044 E6.16607
G1 X121.952 Y92.09 E6.17718
G1 X122.858 Y92.256 E6.20782
G1 X124.053 Y92.605 E6.24922
G1 X124.168 Y92.646 E6.25329
G1 X124.615 Y92.816 E6.26919
G1 X124.953 Y92.954 E6.28133
G1 X125.789 Y93.339 E6.31195
G1 X126.775 Y93.914 E6.34991
G1 X126.895 Y93.993 E6.35469
G1 X127.319 Y94.288 E6.37187
G1 X127.59 Y94.486 E6.38303
G1 X128.309 Y95.061 E6.41365
G1 X129.12 Y95.849 E6.45126
G1 X129.315 Y96.06 E6.46082
G1 X131.149 Y97.997 E6.54954
G1 X131.346 Y98.196 E6.55885
G1 X131.533 Y98.389 E6.56779
G1 X132.615 Y99.535 E6.62021
G1 X132.86 Y99.803 E6.63229
G1 X133.15 Y100.132 E6.64688
G1 X133.728 Y100.848 E6.67748
G1 X134.247 Y101.621 E6.70845
G1 X134.724 Y102.403 E6.73891
G1 X134.911 Y102.722 E6.75121
G1 X135.125 Y103.102 E6.76572
G1 X135.542 Y103.923 E6.79635
G1 X135.89 Y104.791 E6.82745
G1 X136.198 Y105.668 E6.85836
G1 X136.306 Y105.992 E6.86972
G1 X136.435 Y106.401 E6.88399
G1 X136.674 Y107.29 E6.91461
G1 X136.839 Y108.237 E6.94658
G1 X136.956 Y109.147 E6.97709
G1 X136.995 Y109.496 E6.98877
G1 X137.037 Y109.938 E7.00354
G1 X137.085 Y110.858 E7.03418
G1 X137.05 Y111.805 E7.0657
G1 X136.992 Y112.514 E7.08936
G1 X136.949 Y112.932 E7.10334
G1 X136.857 Y113.687 E7.12863
G1 X136.706 Y114.595 E7.15925
G1 X136.47 Y115.509 E7.19065
G1 X136.293 Y116.087 E7.21075
G1 X136.201 Y116.375 E7.22081
G1 X135.997 Y116.979 E7.24201
G1 X135.664 Y117.838 E7.27265
G1 X135.252 Y118.677 E7.30374
G1 X134.813 Y119.479 E7.33415
G1 X134.623 Y119.812 E7.3469
G1 X134.392 Y120.2 E7.36192
G1 X133.887 Y120.969 E7.39252
G1 X133.315 Y121.695 E7.42326
G1 X132.718 Y122.388 E7.45368
G1 X132.482 Y122.654 E7.46551
G1 X132.188 Y122.973 E7.47994
G1 X131.535 Y123.622 E7.51056
G1 X130.799 Y124.234 E7.5424
G1 X130.07 Y124.787 E7.57283
G1 X129.785 Y124.996 E7.58459
G1 X129.416 Y125.257 E7.59962
G1 X128.642 Y125.756 E7.63025
G1 X127.814 Y126.191 E7.66136
G1 X126.995 Y126.577 E7.69147
G1 X126.663 Y126.727 E7.70359
G1 X126.256 Y126.902 E7.71832
G1 X125.395 Y127.229 E7.74896
G1 X124.47 Y127.488 E7.78091
G1 X123.567 Y127.698 E7.81174
G1 X123.24 Y127.769 E7.82287
G1 X122.814 Y127.854 E7.83732
G1 X121.904 Y127.995 E7.86795
G1 X120.963 Y128.057 E7.89931
G1 X120.011 Y128.077 E7.93098
G1 X119.626 Y128.078 E7.94379
G1 X119.167 Y128.071 E7.95906
G1 X118.576 Y128.045 E7.97873
G1 X117.775 Y127.987 E8.00544
G1 X116.305 Y127.863 E8.05451
G1 X113.793 Y127.721 E8.13819
G1 X111.25 Y127.65 E8.22281
G1 X108.738 Y127.652 E8.30635
G1 X106.201 Y127.725 E8.39077
G1 X102.648 Y127.946 E8.50917
G1 X101.694 Y128.024 E8.54101
G1 X101.044 Y128.057 E8.56266
G1 X100.038 Y128.077 E8.59612
G1 X99.684 Y128.078 E8.6079
G1 X99.238 Y128.072 E8.62273
G1 X98.319 Y128.02 E8.65335
G1 X97.391 Y127.885 E8.68454
G1 X96.512 Y127.717 E8.7143
G1 X96.128 Y127.636 E8.72735
G1 X95.671 Y127.531 E8.74295
G1 X94.784 Y127.286 E8.77356
G1 X93.937 Y126.972 E8.8036
G1 X93.083 Y126.613 E8.83441
G1 X92.754 Y126.468 E8.84637
G1 X92.37 Y126.291 E8.86043
G1 X91.551 Y125.869 E8.89108
G1 X90.735 Y125.352 E8.92321
G1 X89.991 Y124.832 E8.9534
G1 X89.729 Y124.644 E8.96412
G1 X89.364 Y124.372 E8.97926
G1 X88.65 Y123.79 E9.0099
G1 X87.99 Y123.148 E9.04052
G1 X87.969 Y123.124 E9.04159
G1 X87.361 Y122.476 E9.07114
G1 X87.108 Y122.197 E9.08367
G1 X86.804 Y121.849 E9.09904
G1 X86.229 Y121.13 E9.12966
G1 X85.713 Y120.354 E9.16065
G1 X85.236 Y119.564 E9.19134
G1 X85.069 Y119.277 E9.20239
G1 X84.86 Y118.905 E9.21658
G1 X84.444 Y118.084 E9.24719
G1 X84.086 Y117.186 E9.27935
G1 X83.786 Y116.321 E9.3098
G1 X83.677 Y115.988 E9.32145
G1 X83.543 Y115.556 E9.3365
G1 X83.309 Y114.666 E9.3671
G1 X83.147 Y113.719 E9.39906
G1 X83.038 Y112.839 E9.42855
G1 X83.004 Y112.518 E9.43929
G1 X82.961 Y112.056 E9.45472
G1 X82.915 Y111.137 E9.48532
G1 X82.954 Y110.171 E9.51748
G1 X83.032 Y109.259 E9.54792
G1 X83.068 Y108.907 E9.55969
G1 X83.12 Y108.471 E9.5743
G1 X83.268 Y107.562 E9.60493
G1 X83.501 Y106.651 E9.6362
G1 X83.765 Y105.78 E9.66647
G1 X83.879 Y105.426 E9.67884
G1 X84.026 Y104.996 E9.69396
G1 X84.361 Y104.139 E9.72456
G1 X84.771 Y103.312 E9.75526
G1 X85.206 Y102.522 E9.78526
G1 X85.399 Y102.185 E9.79817
G1 X85.628 Y101.803 E9.81299
G1 X86.136 Y101.035 E9.84361
G1 X86.698 Y100.325 E9.87373
G1 X87.287 Y99.643 E9.9037
G1 X87.519 Y99.382 E9.91532
G1 X87.83 Y99.045 E9.93057
G1 X88.483 Y98.396 E9.96119
G0 F6000 X88.765 Y98.681
G1 F1200 X89.472 Y98.095 E9.99173
G1 X90.175 Y97.564 E10.02104
G1 X90.458 Y97.358 E10.03268
G1 X90.855 Y97.079 E10.04882
G1 X91.616 Y96.593 E10.07885
G1 X92.386 Y96.19 E10.10776
G1 X93.185 Y95.815 E10.13711
G1 X93.49 Y95.678 E10.14823
G1 X93.911 Y95.497 E10.16347
G1 X94.756 Y95.178 E10.19352
G1 X95.616 Y94.936 E10.22323
G1 X96.488 Y94.732 E10.25302
G1 X96.82 Y94.66 E10.26431
G1 X97.272 Y94.57 E10.27964
G1 X98.165 Y94.433 E10.30969
G1 X99.061 Y94.376 E10.33955
G1 X101.088 Y94.336 E10.40699
G1 X101.178 Y94.332 E10.40998
G1 X102.284 Y94.316 E10.44677
G1 X104.852 Y94.207 E10.53226
G1 X107.354 Y94.03 E10.61568
G1 X109.866 Y93.781 E10.69964
G1 X112.429 Y93.453 E10.78558
G1 X114.917 Y93.062 E10.86935
G1 X116.498 Y92.777 E10.92278
G1 X117.607 Y92.567 E10.96032
G1 X117.884 Y92.519 E10.96967
G1 X118.033 Y92.495 E10.97469
G1 X118.555 Y92.425 E10.99221
G1 X118.896 Y92.388 E11.00362
G1 X119.797 Y92.33 E11.03365
G1 X120.914 Y92.369 E11.07082
G1 X121.08 Y92.384 E11.07637
G1 X121.566 Y92.44 E11.09264
G1 X121.897 Y92.486 E11.10375
G1 X122.785 Y92.65 E11.13379
G1 X123.918 Y92.981 E11.17305
G1 X124.033 Y93.022 E11.17711
G1 X124.464 Y93.187 E11.19246
G1 X124.802 Y93.325 E11.2046
G1 X125.622 Y93.703 E11.23463
G1 X126.555 Y94.248 E11.27057
G1 X126.675 Y94.327 E11.27535
G1 X127.083 Y94.611 E11.29188
G1 X127.354 Y94.809 E11.30305
G1 X128.059 Y95.374 E11.33309
G1 X128.827 Y96.121 E11.36873
G1 X129.058 Y96.37 E11.38003
G1 X130.857 Y98.271 E11.46708
G1 X131.062 Y98.478 E11.47677
G1 X131.243 Y98.664 E11.4854
G1 X132.325 Y99.81 E11.53782
G1 X132.56 Y100.067 E11.5494
G1 X132.85 Y100.396 E11.56399
G1 X133.416 Y101.1 E11.59403
G1 X133.906 Y101.829 E11.62325
G1 X134.383 Y102.611 E11.65371
G1 X134.563 Y102.918 E11.66555
G1 X134.777 Y103.298 E11.68006
G1 X135.184 Y104.104 E11.71009
G1 X135.513 Y104.923 E11.73944
G1 X135.821 Y105.8 E11.77036
G1 X135.925 Y106.112 E11.7813
G1 X136.054 Y106.521 E11.79556
G1 X136.287 Y107.393 E11.82558
G1 X136.443 Y108.288 E11.8558
G1 X136.56 Y109.198 E11.88631
G1 X136.597 Y109.534 E11.89756
G1 X136.639 Y109.976 E11.91232
G1 X136.685 Y110.878 E11.94236
G1 X136.651 Y111.773 E11.97215
G1 X136.593 Y112.482 E11.99581
G1 X136.552 Y112.884 E12.00925
G1 X136.46 Y113.639 E12.03455
G1 X136.311 Y114.53 E12.0646
G1 X136.088 Y115.392 E12.09421
G1 X135.911 Y115.97 E12.11432
G1 X135.822 Y116.247 E12.12399
G1 X135.618 Y116.851 E12.1452
G1 X135.291 Y117.693 E12.17524
G1 X134.901 Y118.485 E12.2046
G1 X134.462 Y119.287 E12.23501
G1 X134.279 Y119.607 E12.24727
G1 X134.048 Y119.995 E12.26229
G1 X133.552 Y120.75 E12.29234
G1 X133.012 Y121.434 E12.32132
G1 X132.415 Y122.127 E12.35175
G1 X132.187 Y122.383 E12.36315
G1 X131.893 Y122.702 E12.37758
G1 X131.253 Y123.338 E12.40759
G1 X130.557 Y123.915 E12.43766
G1 X129.828 Y124.468 E12.46809
G1 X129.554 Y124.669 E12.47939
G1 X129.185 Y124.93 E12.49442
G1 X128.425 Y125.419 E12.52448
G1 X127.644 Y125.83 E12.55384
G1 X126.825 Y126.216 E12.58395
G1 X126.505 Y126.36 E12.59562
G1 X126.098 Y126.535 E12.61036
G1 X125.253 Y126.854 E12.6404
G1 X124.379 Y127.099 E12.67059
G1 X123.476 Y127.309 E12.70142
G1 X123.162 Y127.377 E12.71211
G1 X122.736 Y127.462 E12.72656
G1 X121.843 Y127.599 E12.7566
G1 X120.954 Y127.657 E12.78624
G1 X120.002 Y127.677 E12.81791
G1 X119.632 Y127.678 E12.83021
G1 X119.173 Y127.671 E12.84548
G1 X118.604 Y127.646 E12.86442
G1 X117.809 Y127.589 E12.89093
G1 X116.326 Y127.463 E12.94044
G1 X113.792 Y127.321 E13.02485
G1 X111.261 Y127.25 E13.10906
G1 X108.726 Y127.252 E13.19338
G1 X106.195 Y127.324 E13.27759
G1 X102.589 Y127.549 E13.39776
G1 X101.661 Y127.625 E13.42873
G1 X101.036 Y127.657 E13.44955
G1 X100.03 Y127.677 E13.48301
G1 X99.69 Y127.678 E13.49432
G1 X99.244 Y127.672 E13.50916
G1 X98.342 Y127.62 E13.53921
G1 X97.466 Y127.492 E13.56865
G1 X96.587 Y127.324 E13.59842
G1 X96.218 Y127.246 E13.61096
G1 X95.761 Y127.141 E13.62656
G1 X94.891 Y126.9 E13.65658
G1 X94.092 Y126.603 E13.68494
G1 X93.238 Y126.244 E13.71575
G1 X92.921 Y126.104 E13.72727
G1 X92.537 Y125.927 E13.74134
G1 X91.735 Y125.513 E13.77136
G1 X90.964 Y125.024 E13.80172
G1 X90.22 Y124.504 E13.83191
G1 X89.968 Y124.323 E13.84223
G1 X89.603 Y124.051 E13.85737
G1 X88.904 Y123.48 E13.88739
G1 X88.257 Y122.849 E13.91745
G1 X88.225 Y122.811 E13.9191
G1 X87.653 Y122.202 E13.94689
G1 X87.409 Y121.933 E13.95897
G1 X87.105 Y121.585 E13.97434
G1 X86.542 Y120.88 E14.00435
G1 X86.055 Y120.147 E14.03362
G1 X85.578 Y119.357 E14.06431
G1 X85.417 Y119.081 E14.07494
G1 X85.208 Y118.709 E14.08913
G1 X84.801 Y117.903 E14.11916
G1 X84.464 Y117.055 E14.14951
G1 X84.164 Y116.19 E14.17996
G1 X84.059 Y115.87 E14.19117
G1 X83.925 Y115.438 E14.20621
G1 X83.696 Y114.564 E14.23626
G1 X83.544 Y113.67 E14.26642
