;FLAVOR:Marlin
;TIME:2186
;Filament used: 1.47466m
;Layer height: 0.16
;MINX:79.032
;MINY:79.056
;MINZ:0.2
;MAXX:140.968
;MAXY:140.944
;MAXZ:6.28
;Generated with Cura_SteamEngine 4.7.1
M140 S60
M105
M190 S60
M104 S200
M105
M109 S200
M82 ;absolute extrusion mode
; Ender 3 Custom Start G-code
G92 E0 ; Reset Extruder
G28 ; Home all axes
G1 Z2.0 F3000 ; Move Z Axis up little to prevent scratching of Heat Bed
G1 X0.1 Y20 Z0.3 F5000.0 ; Move to start position
G1 X0.1 Y200.0 Z0.3 F1500.0 E15 ; Draw the first line
G1 X0.4 Y200.0 Z0.3 F5000.0 ; Move to side a little
G1 X0.4 Y20 Z0.3 F1500.0 E30 ; Draw the second line
G92 E0 ; Reset Extruder
G1 Z2.0 F3000 ; Move Z Axis up little to prevent scratching of Heat Bed
G1 X5 Y20 Z0.3 F5000.0 ; Move over to prevent blob squish
G92 E0
G92 E0
G1 F1500 E-6.5
;LAYER_COUNT:33
;LAYER:0
M107
G0 F6000 X87.688 Y88.515 Z0.2
;TYPE:SKIRT
G1 F1500 E0
G1 F1200 X88.354 Y87.874 E0.03074
G1 X88.495 Y87.741 E0.03719
G1 X89.51 Y86.798 E0.08327
G1 X90.129 Y86.239 E0.11101
G1 X91.127 Y85.44 E0.15353
G1 X91.936 Y84.866 E0.18653
G1 X92.11 Y84.745 E0.19357
G1 X93.346 Y83.904 E0.2433
G1 X93.879 Y83.551 E0.26456
G1 X95.003 Y82.899 E0.30778
G1 X95.902 Y82.446 E0.34126
G1 X96.08 Y82.358 E0.34787
G1 X97.424 Y81.712 E0.39746
G1 X98.006 Y81.441 E0.41882
G1 X99.227 Y80.959 E0.46248
G1 X100.116 Y80.668 E0.49359
G1 X100.295 Y80.611 E0.49984
G1 X101.747 Y80.164 E0.55037
G1 X102.398 Y79.973 E0.57293
G1 X103.66 Y79.682 E0.61601
G1 X104.641 Y79.516 E0.6491
G1 X104.836 Y79.485 E0.65567
G1 X106.354 Y79.257 E0.70672
G1 X106.962 Y79.174 E0.72713
G1 X108.25 Y79.075 E0.7701
G1 X109.186 Y79.058 E0.80123
G1 X109.386 Y79.056 E0.80789
G1 X110.788 Y79.056 E0.85452
G1 X111.587 Y79.066 E0.88109
G1 X112.87 Y79.159 E0.92388
G1 X113.85 Y79.288 E0.95676
G1 X114.053 Y79.317 E0.96358
G1 X115.537 Y79.541 E1.01349
G1 X116.18 Y79.647 E1.03517
G1 X117.445 Y79.934 E1.07831
G1 X118.393 Y80.208 E1.11113
G1 X118.588 Y80.266 E1.1179
G1 X119.97 Y80.694 E1.16602
G1 X120.636 Y80.909 E1.18929
G1 X121.859 Y81.386 E1.23296
G1 X122.734 Y81.789 E1.265
G1 X122.901 Y81.868 E1.27114
G1 X124.251 Y82.518 E1.32098
G1 X124.842 Y82.812 E1.34293
G1 X125.979 Y83.465 E1.38654
G1 X126.791 Y83.998 E1.41885
G1 X126.951 Y84.105 E1.42525
G1 X128.101 Y84.889 E1.47154
G1 X128.742 Y85.339 E1.49759
G1 X129.744 Y86.134 E1.54013
G1 X130.468 Y86.781 E1.57243
G1 X130.624 Y86.923 E1.57944
G1 X131.634 Y87.861 E1.62529
G1 X132.205 Y88.405 E1.65152
G1 X133.079 Y89.342 E1.69414
G1 X133.709 Y90.102 E1.72697
G1 X133.844 Y90.268 E1.73409
G1 X134.678 Y91.315 E1.77861
G1 X135.163 Y91.938 E1.80487
G1 X135.908 Y93.023 E1.84864
G1 X136.422 Y93.878 E1.88182
G1 X136.521 Y94.046 E1.88831
G1 X137.197 Y95.217 E1.93328
G1 X137.589 Y95.918 E1.95999
G1 X138.147 Y97.071 E2.0026
G1 X138.51 Y97.948 E2.03417
G1 X138.586 Y98.138 E2.04097
G1 X139.133 Y99.534 E2.09084
G1 X139.376 Y100.178 E2.11373
G1 X139.762 Y101.42 E2.15699
G1 X139.99 Y102.342 E2.18858
G1 X140.037 Y102.538 E2.19529
G1 X140.335 Y103.845 E2.23987
G1 X140.508 Y104.649 E2.26723
G1 X140.707 Y105.94 E2.31067
G1 X140.802 Y106.96 E2.34474
G1 X140.818 Y107.157 E2.35132
G1 X140.915 Y108.45 E2.39444
G1 X140.966 Y109.285 E2.42227
G1 X140.968 Y110.567 E2.46491
G1 X140.911 Y111.569 E2.49829
G1 X140.898 Y111.763 E2.50475
G1 X140.791 Y113.196 E2.55255
G1 X140.73 Y113.888 E2.57565
G1 X140.538 Y115.18 E2.6191
G1 X140.335 Y116.148 E2.65199
G1 X139.991 Y117.658 E2.7035
G1 X139.954 Y117.815 E2.70887
G1 X139.799 Y118.45 E2.73061
G1 X139.425 Y119.672 E2.77311
G1 X139.1 Y120.547 E2.80416
G1 X139.029 Y120.732 E2.81075
G1 X138.519 Y122.033 E2.85723
G1 X138.209 Y122.791 E2.88447
G1 X137.665 Y123.928 E2.92639
G1 X137.179 Y124.809 E2.95985
G1 X137.072 Y124.998 E2.96708
G1 X136.33 Y126.281 E3.01637
G1 X135.995 Y126.843 E3.03813
G1 X135.274 Y127.906 E3.08085
G1 X134.681 Y128.679 E3.11326
G1 X134.553 Y128.843 E3.12018
G1 X133.714 Y129.895 E3.16493
G1 X133.181 Y130.545 E3.19289
G1 X132.312 Y131.485 E3.23547
G1 X131.646 Y132.126 E3.26621
G1 X131.505 Y132.259 E3.27266
G1 X130.49 Y133.202 E3.31874
G1 X129.871 Y133.761 E3.34648
G1 X128.873 Y134.56 E3.389
G1 X128.064 Y135.134 E3.42199
G1 X127.895 Y135.252 E3.42885
G1 X126.657 Y136.095 E3.47866
G1 X126.114 Y136.454 E3.50032
G1 X124.997 Y137.101 E3.54325
G1 X124.098 Y137.554 E3.57673
G1 X123.92 Y137.642 E3.58334
G1 X122.576 Y138.288 E3.63293
G1 X121.994 Y138.559 E3.65429
G1 X120.773 Y139.041 E3.69795
G1 X119.884 Y139.332 E3.72906
G1 X119.705 Y139.389 E3.73531
G1 X118.253 Y139.836 E3.78584
G1 X117.602 Y140.027 E3.8084
G1 X116.34 Y140.318 E3.85148
G1 X115.359 Y140.484 E3.88457
G1 X115.164 Y140.515 E3.89114
G1 X113.646 Y140.743 E3.94219
G1 X113.038 Y140.826 E3.9626
G1 X111.75 Y140.925 E4.00557
G1 X110.814 Y140.942 E4.0367
G1 X110.614 Y140.944 E4.04336
G1 X109.059 Y140.943 E4.09508
G1 X108.413 Y140.934 E4.11656
G1 X107.13 Y140.841 E4.15935
G1 X106.15 Y140.712 E4.19222
G1 X105.947 Y140.683 E4.19904
G1 X104.463 Y140.459 E4.24896
G1 X103.82 Y140.353 E4.27064
G1 X102.555 Y140.066 E4.31378
G1 X101.607 Y139.792 E4.3466
G1 X101.412 Y139.734 E4.35337
G1 X100.03 Y139.306 E4.40149
G1 X99.364 Y139.091 E4.42476
G1 X98.141 Y138.614 E4.46843
G1 X97.266 Y138.211 E4.50047
G1 X97.099 Y138.132 E4.50661
G1 X95.749 Y137.482 E4.55645
G1 X95.158 Y137.188 E4.5784
G1 X94.021 Y136.535 E4.62201
G1 X93.209 Y136.002 E4.65432
G1 X93.049 Y135.895 E4.66072
G1 X91.899 Y135.111 E4.70701
G1 X91.258 Y134.661 E4.73306
G1 X90.256 Y133.866 E4.7756
G1 X89.532 Y133.219 E4.8079
G1 X89.376 Y133.077 E4.81491
G1 X88.366 Y132.139 E4.86076
G1 X87.792 Y131.592 E4.88713
G1 X86.917 Y130.654 E4.92979
G1 X86.289 Y129.896 E4.96253
G1 X86.156 Y129.732 E4.96956
G1 X85.24 Y128.581 E5.01848
G1 X84.832 Y128.056 E5.0406
G1 X84.089 Y126.972 E5.08431
G1 X83.577 Y126.12 E5.11737
G1 X83.479 Y125.954 E5.12378
G1 X82.803 Y124.783 E5.16875
G1 X82.409 Y124.078 E5.19561
G1 X81.852 Y122.925 E5.2382
G1 X81.49 Y122.05 E5.2697
G1 X81.414 Y121.862 E5.27644
G1 X80.867 Y120.465 E5.32634
G1 X80.623 Y119.818 E5.34934
G1 X80.236 Y118.574 E5.39267
G1 X80.009 Y117.655 E5.42416
G1 X79.963 Y117.462 E5.43076
G1 X79.665 Y116.155 E5.47534
G1 X79.492 Y115.351 E5.50269
G1 X79.293 Y114.06 E5.54614
G1 X79.198 Y113.04 E5.58021
G1 X79.182 Y112.843 E5.58679
G1 X79.085 Y111.55 E5.62991
G1 X79.034 Y110.715 E5.65774
G1 X79.032 Y109.433 E5.70038
G1 X79.089 Y108.431 E5.73376
G1 X79.102 Y108.237 E5.74022
G1 X79.209 Y106.804 E5.78802
G1 X79.27 Y106.112 E5.81112
G1 X79.462 Y104.82 E5.85457
G1 X79.665 Y103.852 E5.88746
G1 X80.009 Y102.342 E5.93897
G1 X80.046 Y102.185 E5.94434
G1 X80.201 Y101.55 E5.96608
G1 X80.575 Y100.328 E6.00858
G1 X80.9 Y99.453 E6.03963
G1 X80.971 Y99.268 E6.04622
G1 X81.481 Y97.967 E6.0927
G1 X81.791 Y97.209 E6.11993
G1 X82.335 Y96.072 E6.16186
G1 X82.821 Y95.191 E6.19532
G1 X82.928 Y95.002 E6.20255
G1 X83.67 Y93.719 E6.25184
G1 X84.005 Y93.157 E6.2736
G1 X84.726 Y92.094 E6.31632
G1 X85.319 Y91.321 E6.34873
G1 X85.447 Y91.157 E6.35565
G1 X86.286 Y90.105 E6.4004
G1 X86.819 Y89.455 E6.42836
G1 X87.688 Y88.515 E6.47094
G0 F6000 X87.965 Y88.804
G1 F1200 X88.631 Y88.163 E6.50168
G1 X88.767 Y88.034 E6.50792
G1 X89.782 Y87.091 E6.554
G1 X90.397 Y86.536 E6.58155
G1 X91.358 Y85.766 E6.62251
G1 X92.167 Y85.192 E6.6555
G1 X92.335 Y85.076 E6.66229
G1 X93.567 Y84.237 E6.71186
G1 X94.1 Y83.884 E6.73313
G1 X95.183 Y83.256 E6.77477
G1 X96.082 Y82.803 E6.80825
G1 X96.254 Y82.718 E6.81463
G1 X97.469 Y82.133 E6.85948
G1 X98.175 Y81.804 E6.88539
G1 X99.351 Y81.339 E6.92745
G1 X100.24 Y81.048 E6.95856
G1 X100.413 Y80.993 E6.9646
G1 X101.719 Y80.59 E7.01006
G1 X102.511 Y80.357 E7.03752
G1 X103.726 Y80.077 E7.07899
G1 X104.707 Y79.911 E7.11208
G1 X104.895 Y79.881 E7.11841
G1 X106.408 Y79.653 E7.1693
G1 X107.016 Y79.57 E7.18971
G1 X108.258 Y79.475 E7.23114
G1 X109.194 Y79.458 E7.26228
G1 X109.386 Y79.456 E7.26866
G1 X110.788 Y79.456 E7.31529
G1 X111.582 Y79.466 E7.3417
G1 X112.817 Y79.556 E7.38289
G1 X113.993 Y79.712 E7.42235
G1 X115.327 Y79.913 E7.46722
G1 X116.115 Y80.042 E7.49377
G1 X117.334 Y80.318 E7.53534
G1 X118.282 Y80.592 E7.56816
G1 X118.469 Y80.648 E7.57466
G1 X119.847 Y81.075 E7.62264
G1 X120.513 Y81.29 E7.64592
G1 X121.691 Y81.749 E7.68797
G1 X122.566 Y82.152 E7.72001
G1 X122.728 Y82.228 E7.72596
G1 X124.073 Y82.876 E7.77561
G1 X124.664 Y83.17 E7.79757
G1 X125.76 Y83.8 E7.83962
G1 X126.572 Y84.333 E7.87192
G1 X126.726 Y84.436 E7.87808
G1 X127.876 Y85.22 E7.92438
G1 X128.512 Y85.666 E7.95021
G1 X129.477 Y86.432 E7.99119
G1 X130.201 Y87.079 E8.02349
G1 X130.351 Y87.216 E8.03024
G1 X131.467 Y88.253 E8.08091
G1 X131.929 Y88.694 E8.10215
G1 X132.771 Y89.597 E8.14322
G1 X133.401 Y90.357 E8.17605
G1 X133.531 Y90.518 E8.18294
G1 X134.441 Y91.661 E8.23153
G1 X134.847 Y92.183 E8.25352
G1 X135.565 Y93.23 E8.29575
G1 X136.079 Y94.085 E8.32893
G1 X136.174 Y94.246 E8.33515
G1 X136.927 Y95.552 E8.38529
G1 X137.24 Y96.113 E8.40665
G1 X137.777 Y97.224 E8.4477
G1 X138.14 Y98.101 E8.47927
G1 X138.214 Y98.284 E8.48583
G1 X138.709 Y99.546 E8.53092
G1 X139.001 Y100.319 E8.5584
G1 X139.374 Y101.516 E8.6001
G1 X139.602 Y102.438 E8.63169
G1 X139.647 Y102.627 E8.63815
G1 X139.945 Y103.934 E8.68274
G1 X140.117 Y104.733 E8.70992
G1 X140.308 Y105.977 E8.75178
G1 X140.403 Y106.997 E8.78586
G1 X140.419 Y107.187 E8.7922
G1 X140.527 Y108.64 E8.84066
G1 X140.567 Y109.309 E8.86295
G1 X140.569 Y110.544 E8.90403
G1 X140.512 Y111.546 E8.93741
G1 X140.5 Y111.733 E8.94364
G1 X140.404 Y113.019 E8.98653
G1 X140.331 Y113.853 E9.01438
G1 X140.146 Y115.098 E9.05624
G1 X139.903 Y116.252 E9.09546
G1 X139.602 Y117.569 E9.1404
G1 X139.411 Y118.356 E9.16733
G1 X139.05 Y119.533 E9.20828
G1 X138.725 Y120.408 E9.23932
G1 X138.657 Y120.586 E9.24566
G1 X138.147 Y121.887 E9.29214
G1 X137.839 Y122.639 E9.31917
G1 X137.314 Y123.735 E9.35959
G1 X136.828 Y124.616 E9.39305
G1 X136.726 Y124.798 E9.39999
G1 X136.06 Y125.951 E9.44428
G1 X135.651 Y126.638 E9.47087
G1 X134.956 Y127.663 E9.51206
G1 X134.363 Y128.436 E9.54446
G1 X134.24 Y128.593 E9.5511
G1 X133.302 Y129.768 E9.6011
G1 X132.872 Y130.291 E9.62362
G1 X132.035 Y131.196 E9.66462
G1 X131.369 Y131.837 E9.69537
G1 X131.233 Y131.966 E9.7016
G1 X130.218 Y132.909 E9.74768
G1 X129.603 Y133.464 E9.77523
G1 X128.642 Y134.234 E9.81619
G1 X127.833 Y134.808 E9.84918
G1 X127.67 Y134.922 E9.8558
G1 X126.561 Y135.678 E9.90044
G1 X125.893 Y136.12 E9.92708
G1 X124.817 Y136.744 E9.96845
G1 X123.918 Y137.197 E10.00193
G1 X123.746 Y137.282 E10.00832
G1 X122.531 Y137.867 E10.05317
G1 X121.825 Y138.196 E10.07907
G1 X120.649 Y138.661 E10.12113
G1 X119.76 Y138.952 E10.15225
G1 X119.587 Y139.007 E10.15828
G1 X118.281 Y139.41 E10.20374
G1 X117.489 Y139.643 E10.2312
G1 X116.274 Y139.923 E10.27267
G1 X115.293 Y140.089 E10.30576
G1 X115.105 Y140.119 E10.3121
G1 X113.592 Y140.347 E10.36299
G1 X112.984 Y140.43 E10.3834
G1 X111.742 Y140.525 E10.42483
G1 X110.806 Y140.542 E10.45596
G1 X110.614 Y140.544 E10.46235
G1 X109.064 Y140.543 E10.5139
G1 X108.418 Y140.534 E10.53539
G1 X107.183 Y140.444 E10.57658
G1 X106.007 Y140.288 E10.61603
G1 X104.673 Y140.087 E10.6609
G1 X103.885 Y139.958 E10.68746
G1 X102.666 Y139.682 E10.72903
G1 X101.718 Y139.408 E10.76185
G1 X101.531 Y139.352 E10.76834
G1 X100.153 Y138.925 E10.81633
G1 X99.487 Y138.71 E10.8396
G1 X98.309 Y138.251 E10.88165
G1 X97.434 Y137.848 E10.91369
G1 X97.272 Y137.772 E10.91964
G1 X95.927 Y137.124 E10.9693
G1 X95.336 Y136.83 E10.99126
G1 X94.24 Y136.2 E11.0333
G1 X93.428 Y135.667 E11.06561
G1 X93.274 Y135.564 E11.07177
G1 X92.124 Y134.78 E11.11806
G1 X91.488 Y134.334 E11.1439
G1 X90.523 Y133.568 E11.18488
G1 X89.799 Y132.921 E11.21717
G1 X89.649 Y132.784 E11.22393
G1 X88.532 Y131.746 E11.27464
G1 X88.068 Y131.303 E11.29598
G1 X87.225 Y130.399 E11.33709
G1 X86.597 Y129.641 E11.36983
G1 X85.556 Y128.335 E11.42538
G1 X85.148 Y127.81 E11.4475
G1 X84.432 Y126.766 E11.4896
G1 X83.92 Y125.914 E11.52266
G1 X83.826 Y125.754 E11.52883
G1 X83.072 Y124.446 E11.57905
G1 X82.758 Y123.883 E11.60049
G1 X82.221 Y122.772 E11.64153
G1 X81.859 Y121.897 E11.67303
G1 X81.786 Y121.716 E11.67952
G1 X81.291 Y120.454 E11.72461
G1 X80.997 Y119.676 E11.75227
G1 X80.624 Y118.478 E11.794
G1 X80.397 Y117.559 E11.82549
G1 X80.353 Y117.373 E11.83184
G1 X80.055 Y116.066 E11.87643
G1 X79.883 Y115.267 E11.90361
G1 X79.692 Y114.023 E11.94547
G1 X79.597 Y113.003 E11.97955
G1 X79.581 Y112.813 E11.98589
G1 X79.473 Y111.36 E12.03435
G1 X79.433 Y110.691 E12.05664
G1 X79.431 Y109.456 E12.09771
G1 X79.488 Y108.454 E12.13109
G1 X79.5 Y108.267 E12.13733
G1 X79.596 Y106.981 E12.18022
G1 X79.669 Y106.147 E12.20806
G1 X79.854 Y104.902 E12.24993
G1 X80.097 Y103.748 E12.28915
G1 X80.398 Y102.431 E12.33408
G1 X80.589 Y101.644 E12.36102
G1 X80.95 Y100.467 E12.40197
G1 X81.275 Y99.592 E12.43301
G1 X81.343 Y99.414 E12.43935
G1 X81.853 Y98.113 E12.48583
G1 X82.161 Y97.361 E12.51286
G1 X82.686 Y96.265 E12.55328
G1 X83.172 Y95.384 E12.58674
G1 X83.274 Y95.202 E12.59368
G1 X83.94 Y94.049 E12.63797
G1 X84.349 Y93.362 E12.66456
G1 X85.044 Y92.337 E12.70575
G1 X85.637 Y91.564 E12.73815
G1 X85.76 Y91.407 E12.74479
G1 X86.698 Y90.232 E12.79479
G1 X87.128 Y89.709 E12.81731
G1 X87.965 Y88.804 E12.85831
G0 F6000 X88.243 Y89.092
G1 F1200 X89.039 Y88.327 E12.89503
G1 X90.054 Y87.384 E12.94111
G1 X90.664 Y86.833 E12.96845
G1 X91.59 Y86.092 E13.0079
G1 X92.399 Y85.518 E13.04089
G1 X92.56 Y85.406 E13.04741
G1 X93.788 Y84.571 E13.0968
G1 X94.321 Y84.218 E13.11807
G1 X95.363 Y83.613 E13.15814
G1 X96.262 Y83.16 E13.19162
G1 X96.427 Y83.079 E13.19774
G1 X97.761 Y82.437 E13.24698
G1 X98.343 Y82.166 E13.26833
G1 X99.476 Y81.719 E13.30884
G1 X100.53 Y81.375 E13.34572
G1 X101.836 Y80.972 E13.39118
G1 X102.623 Y80.741 E13.41846
G1 X103.793 Y80.471 E13.45839
G1 X104.774 Y80.305 E13.49149
G1 X104.955 Y80.276 E13.49758
G1 X106.321 Y80.07 E13.54353
G1 X107.07 Y79.967 E13.56868
G1 X108.265 Y79.875 E13.60854
G1 X109.201 Y79.858 E13.63968
G1 X109.386 Y79.856 E13.64583
G1 X110.788 Y79.856 E13.69246
G1 X111.576 Y79.866 E13.71867
G1 X112.765 Y79.952 E13.75832
G1 X113.745 Y80.081 E13.7912
G1 X113.934 Y80.108 E13.79755
G1 X115.407 Y80.331 E13.8471
G1 X116.05 Y80.437 E13.86877
G1 X117.223 Y80.702 E13.90877
G1 X118.171 Y80.976 E13.94159
G1 X118.351 Y81.03 E13.94784
G1 X119.725 Y81.455 E13.99568
G1 X120.391 Y81.67 E14.01895
G1 X121.524 Y82.112 E14.0594
G1 X122.399 Y82.515 E14.09144
G1 X123.895 Y83.235 E14.14666
G1 X124.486 Y83.529 E14.16862
G1 X125.54 Y84.134 E14.20904
G1 X126.501 Y84.766 E14.2473
G1 X127.651 Y85.55 E14.29359
G1 X128.282 Y85.993 E14.31923
G1 X129.211 Y86.73 E14.35867
G1 X129.935 Y87.377 E14.39097
G1 X130.079 Y87.509 E14.39746
G1 X131.191 Y88.543 E14.44797
G1 X131.653 Y88.984 E14.46921
G1 X132.463 Y89.852 E14.5087
G1 X133.093 Y90.612 E14.54153
G1 X133.218 Y90.767 E14.54815
G1 X134.125 Y91.907 E14.59661
G1 X134.531 Y92.429 E14.6186
G1 X135.222 Y93.436 E14.65922
G1 X135.828 Y94.446 E14.6984
G1 X136.504 Y95.617 E14.74337
G1 X136.89 Y96.308 E14.76969
G1 X137.408 Y97.377 E14.8092
G1 X137.771 Y98.254 E14.84077
G1 X137.842 Y98.43 E14.84709
G1 X138.337 Y99.692 E14.89217
G1 X138.627 Y100.46 E14.91948
G1 X138.986 Y101.612 E14.95961
G1 X139.214 Y102.534 E14.9912
G1 X139.257 Y102.716 E14.99742
G1 X139.555 Y104.023 E15.04201
G1 X139.726 Y104.817 E15.06902
G1 X139.91 Y106.014 E15.1093
G1 X140.005 Y107.034 E15.14337
G1 X140.02 Y107.217 E15.14948
G1 X140.128 Y108.664 E15.19774
G1 X140.168 Y109.333 E15.22003
G1 X140.17 Y110.521 E15.25955
G1 X140.113 Y111.523 E15.29293
G1 X140.101 Y111.703 E15.29893
G1 X139.994 Y113.126 E15.34639
G1 X139.933 Y113.818 E15.36949
G1 X139.755 Y115.016 E15.40978
G1 X139.552 Y115.984 E15.44267
G1 X139.513 Y116.163 E15.44877
G1 X139.212 Y117.48 E15.4937
G1 X139.022 Y118.261 E15.52043
G1 X138.675 Y119.394 E15.55984
G1 X138.35 Y120.269 E15.59089
G1 X137.774 Y121.741 E15.64346
G1 X137.714 Y121.891 E15.64884
G1 X137.469 Y122.488 E15.6703
G1 X136.964 Y123.542 E15.70917
G1 X136.478 Y124.423 E15.74264
G1 X136.379 Y124.598 E15.74932
G1 X135.643 Y125.872 E15.79826
G1 X135.308 Y126.434 E15.82002
G1 X134.639 Y127.419 E15.85963
G1 X134.046 Y128.192 E15.89203
G1 X133.927 Y128.344 E15.89845
G1 X132.993 Y129.514 E15.94824
G1 X132.563 Y130.037 E15.97076
