;FLAVOR:Marlin
;TIME:3365
;Filament used: 2.37932m
;Layer height: 0.16
;MINX:79.029
;MINY:79.03
;MINZ:0.2
;MAXX:140.938
;MAXY:140.965
;MAXZ:21.08
;Generated with Cura_SteamEngine 4.7.1
M140 S60
M105
M190 S60
M104 S200
M105
M109 S200
M82 ;absolute extrusion mode
; Ender 3 Custom Start G-code
G92 E0 ; Reset Extruder
G28 ; Home all axes
G1 Z2.0 F3000 ; Move Z Axis up little to prevent scratching of Heat Bed
G1 X0.1 Y20 Z0.3 F5000.0 ; Move to start position
G1 X0.1 Y200.0 Z0.3 F1500.0 E15 ; Draw the first line
G1 X0.4 Y200.0 Z0.3 F5000.0 ; Move to side a little
G1 X0.4 Y20 Z0.3 F1500.0 E30 ; Draw the second line
G92 E0 ; Reset Extruder
G1 Z2.0 F3000 ; Move Z Axis up little to prevent scratching of Heat Bed
G1 X5 Y20 Z0.3 F5000.0 ; Move over to prevent blob squish
G92 E0
G92 E0
G1 F1500 E-6.5
;LAYER_COUNT:107
;LAYER:0
M107
G0 F6000 X88.797 Y87.395 Z0.2
;TYPE:SKIRT
G1 F1500 E0
G1 F1200 X89.765 Y86.527 E0.04324
G1 X90.614 Y85.852 E0.07932
G1 X90.792 Y85.713 E0.08683
G1 X91.839 Y84.915 E0.13062
G1 X92.503 Y84.423 E0.1581
G1 X93.601 Y83.708 E0.20168
G1 X94.514 Y83.188 E0.23663
G1 X94.704 Y83.082 E0.24386
G1 X95.94 Y82.41 E0.29066
G1 X96.592 Y82.066 E0.31518
G1 X97.781 Y81.528 E0.35858
G1 X98.8 Y81.138 E0.39487
G1 X99.017 Y81.057 E0.40258
G1 X100.438 Y80.548 E0.45278
G1 X101.014 Y80.35 E0.47304
G1 X102.283 Y79.998 E0.51684
G1 X103.346 Y79.77 E0.553
G1 X103.558 Y79.726 E0.5602
G1 X104.929 Y79.46 E0.60665
G1 X105.649 Y79.33 E0.63098
G1 X106.947 Y79.177 E0.67445
G1 X108.06 Y79.112 E0.71154
G1 X108.281 Y79.101 E0.7189
G1 X109.766 Y79.045 E0.76832
G1 X110.375 Y79.03 E0.78858
G1 X111.69 Y79.077 E0.83235
G1 X112.802 Y79.183 E0.8695
G1 X113.018 Y79.205 E0.87672
G1 X114.336 Y79.357 E0.92085
G1 X115.106 Y79.456 E0.94667
G1 X116.4 Y79.703 E0.99049
G1 X117.444 Y79.968 E1.02631
G1 X117.648 Y80.022 E1.03333
G1 X119.137 Y80.431 E1.08469
G1 X119.688 Y80.59 E1.10376
G1 X120.941 Y81.035 E1.14799
G1 X121.948 Y81.463 E1.18438
G1 X122.145 Y81.55 E1.19154
G1 X123.524 Y82.169 E1.24182
G1 X124.087 Y82.431 E1.26247
G1 X125.239 Y83.053 E1.30602
G1 X126.138 Y83.61 E1.34119
G1 X126.322 Y83.727 E1.34844
G1 X127.645 Y84.584 E1.40087
G1 X128.137 Y84.913 E1.42056
G1 X129.173 Y85.698 E1.46379
G1 X129.962 Y86.373 E1.49832
G1 X130.131 Y86.522 E1.50582
G1 X131.309 Y87.573 E1.55833
G1 X131.735 Y87.963 E1.57754
G1 X132.652 Y88.909 E1.62136
G1 X133.364 Y89.738 E1.6577
G1 X133.507 Y89.908 E1.66509
G1 X134.487 Y91.098 E1.71636
G1 X134.855 Y91.558 E1.73596
G1 X135.605 Y92.62 E1.7792
G1 X136.186 Y93.554 E1.81578
G1 X136.298 Y93.738 E1.82295
G1 X136.97 Y94.867 E1.86665
G1 X137.06 Y95.021 E1.87258
G1 X137.388 Y95.593 E1.89451
G1 X137.962 Y96.745 E1.93732
G1 X138.372 Y97.705 E1.97204
G1 X138.456 Y97.906 E1.97929
G1 X138.958 Y99.149 E2.02387
G1 X139.256 Y99.916 E2.05124
G1 X139.658 Y101.17 E2.09504
G1 X139.93 Y102.236 E2.13163
G1 X139.983 Y102.455 E2.13913
G1 X140.318 Y103.894 E2.18827
G1 X140.456 Y104.526 E2.20978
G1 X140.658 Y105.81 E2.25301
G1 X140.76 Y106.861 E2.28813
G1 X140.779 Y107.08 E2.29545
G1 X140.895 Y108.602 E2.34621
G1 X140.934 Y109.225 E2.36698
G1 X140.938 Y110.532 E2.41045
G1 X140.876 Y111.63 E2.44702
G1 X140.861 Y111.853 E2.45446
G1 X140.745 Y113.349 E2.50436
G1 X140.689 Y113.963 E2.52487
G1 X140.493 Y115.255 E2.56834
G1 X140.263 Y116.335 E2.60506
G1 X140.216 Y116.545 E2.61222
G1 X139.867 Y118.035 E2.66312
G1 X139.725 Y118.605 E2.68266
G1 X139.333 Y119.856 E2.72626
G1 X138.952 Y120.858 E2.76191
G1 X138.874 Y121.057 E2.76902
G1 X138.369 Y122.311 E2.81399
G1 X138.058 Y123.054 E2.84078
G1 X137.483 Y124.223 E2.88411
G1 X136.93 Y125.197 E2.92136
G1 X136.817 Y125.391 E2.92883
G1 X136.074 Y126.638 E2.9771
G1 X135.741 Y127.181 E2.99829
G1 X134.989 Y128.258 E3.04198
G1 X134.324 Y129.098 E3.07761
G1 X134.188 Y129.266 E3.0848
G1 X133.293 Y130.352 E3.13161
G1 X132.823 Y130.907 E3.1558
G1 X131.922 Y131.85 E3.19918
G1 X131.119 Y132.596 E3.23563
G1 X130.945 Y132.754 E3.24345
G1 X129.819 Y133.755 E3.29356
G1 X129.354 Y134.158 E3.31403
G1 X128.312 Y134.957 E3.3577
G1 X127.435 Y135.55 E3.39291
G1 X127.252 Y135.671 E3.40021
G1 X125.928 Y136.527 E3.45265
G1 X125.433 Y136.837 E3.47207
G1 X124.303 Y137.456 E3.51492
G1 X123.34 Y137.912 E3.55036
G1 X123.137 Y138.005 E3.55779
G1 X121.738 Y138.632 E3.60878
G1 X121.161 Y138.881 E3.62968
G1 X119.928 Y139.328 E3.6733
G1 X118.902 Y139.632 E3.70889
G1 X118.686 Y139.693 E3.71636
G1 X117.179 Y140.106 E3.76833
G1 X116.634 Y140.248 E3.78706
G1 X115.334 Y140.504 E3.83113
G1 X114.268 Y140.648 E3.86691
G1 X114.064 Y140.674 E3.87375
G1 X112.729 Y140.829 E3.91845
G1 X111.913 Y140.912 E3.94573
G1 X110.615 Y140.965 E3.98894
G1 X109.56 Y140.946 E4.02403
G1 X109.333 Y140.94 E4.03159
G1 X107.804 Y140.88 E4.08248
G1 X107.181 Y140.847 E4.10323
G1 X105.889 Y140.701 E4.14648
G1 X104.825 Y140.517 E4.18239
G1 X104.611 Y140.478 E4.18962
G1 X103.292 Y140.223 E4.23431
G1 X103.107 Y140.186 E4.24058
G1 X102.482 Y140.054 E4.26183
G1 X101.25 Y139.718 E4.3043
G1 X100.203 Y139.366 E4.34104
G1 X99.989 Y139.291 E4.34858
G1 X98.717 Y138.834 E4.39354
G1 X98.004 Y138.567 E4.41886
G1 X96.831 Y138.046 E4.46155
G1 X95.857 Y137.543 E4.49801
G1 X95.644 Y137.43 E4.50603
G1 X94.332 Y136.715 E4.55572
G1 X93.797 Y136.415 E4.57613
G1 X92.681 Y135.697 E4.62026
G1 X91.801 Y135.053 E4.65653
G1 X91.624 Y134.921 E4.66388
G1 X90.577 Y134.122 E4.70768
G1 X89.946 Y133.628 E4.73433
G1 X88.967 Y132.761 E4.77783
G1 X88.199 Y131.995 E4.81391
G1 X88.038 Y131.832 E4.82153
G1 X87.109 Y130.866 E4.8661
G1 X86.58 Y130.302 E4.89182
G1 X85.74 Y129.291 E4.93554
G1 X85.099 Y128.418 E4.97156
G1 X84.97 Y128.238 E4.97893
G1 X84.095 Y126.993 E5.02954
G1 X83.753 Y126.492 E5.04972
G1 X83.075 Y125.358 E5.09366
G1 X82.558 Y124.362 E5.13098
G1 X82.462 Y124.173 E5.13804
G1 X81.875 Y122.987 E5.18205
G1 X81.537 Y122.281 E5.20808
G1 X81.049 Y121.08 E5.2512
G1 X80.703 Y120.06 E5.28702
G1 X80.633 Y119.847 E5.29448
G1 X80.208 Y118.505 E5.3413
G1 X79.996 Y117.802 E5.36572
G1 X79.695 Y116.53 E5.4092
G1 X79.505 Y115.442 E5.44593
G1 X79.47 Y115.229 E5.45311
G1 X79.246 Y113.772 E5.50214
G1 X79.159 Y113.155 E5.52287
G1 X79.053 Y111.838 E5.56681
G1 X79.031 Y110.735 E5.6035
G1 X79.029 Y110.516 E5.61079
G1 X79.03 Y109.017 E5.66065
G1 X79.039 Y108.394 E5.68137
G1 X79.135 Y107.097 E5.72463
G1 X79.276 Y106.041 E5.76006
G1 X79.309 Y105.813 E5.76772
G1 X79.54 Y104.328 E5.81771
G1 X79.644 Y103.708 E5.83862
G1 X79.943 Y102.41 E5.88292
G1 X80.248 Y101.378 E5.91871
G1 X80.31 Y101.175 E5.92577
G1 X80.767 Y99.735 E5.97602
G1 X80.963 Y99.144 E5.99673
G1 X81.449 Y97.928 E6.04028
G1 X81.904 Y96.96 E6.07586
G1 X82.001 Y96.758 E6.08331
G1 X82.679 Y95.391 E6.13406
G1 X82.961 Y94.842 E6.15459
G1 X83.619 Y93.728 E6.19762
G1 X84.246 Y92.796 E6.23498
G1 X84.376 Y92.607 E6.24261
G1 X85.147 Y91.511 E6.28718
G1 X85.584 Y90.906 E6.31201
G1 X86.415 Y89.891 E6.35564
G1 X87.167 Y89.077 E6.3925
G1 X87.323 Y88.911 E6.40007
G1 X88.256 Y87.942 E6.44481
G1 X88.797 Y87.395 E6.4704
G0 F6000 X89.081 Y87.676
G1 F1200 X90.014 Y86.84 E6.51207
G1 X90.863 Y86.165 E6.54814
G1 X91.034 Y86.032 E6.55535
G1 X92.203 Y85.142 E6.60421
G1 X92.741 Y84.744 E6.62647
G1 X93.799 Y84.055 E6.66847
G1 X94.712 Y83.535 E6.70341
G1 X94.895 Y83.433 E6.71038
G1 X96.131 Y82.761 E6.75717
G1 X96.778 Y82.42 E6.7815
G1 X97.924 Y81.901 E6.82334
G1 X98.943 Y81.511 E6.85963
G1 X99.152 Y81.434 E6.86704
G1 X100.568 Y80.927 E6.91706
G1 X101.144 Y80.729 E6.93732
G1 X102.367 Y80.389 E6.97954
G1 X103.43 Y80.161 E7.0157
G1 X103.634 Y80.119 E7.02263
G1 X105.155 Y79.825 E7.07415
G1 X105.719 Y79.724 E7.09321
G1 X106.97 Y79.576 E7.13511
G1 X108.083 Y79.511 E7.17219
G1 X108.297 Y79.501 E7.17932
G1 X109.776 Y79.445 E7.22854
G1 X110.385 Y79.43 E7.2488
G1 X111.652 Y79.475 E7.29097
G1 X112.764 Y79.581 E7.32812
G1 X112.972 Y79.603 E7.33508
G1 X114.437 Y79.773 E7.38413
G1 X115.055 Y79.853 E7.40486
G1 X116.302 Y80.091 E7.44708
G1 X117.346 Y80.356 E7.48291
G1 X117.542 Y80.408 E7.48965
G1 X119.026 Y80.816 E7.54084
G1 X119.577 Y80.975 E7.55992
G1 X120.784 Y81.404 E7.60252
G1 X121.791 Y81.832 E7.63892
G1 X121.981 Y81.915 E7.64581
G1 X123.355 Y82.532 E7.69591
G1 X123.918 Y82.794 E7.71656
G1 X125.029 Y83.393 E7.75854
G1 X125.928 Y83.95 E7.79372
G1 X126.105 Y84.062 E7.80068
G1 X127.29 Y84.829 E7.84763
G1 X127.914 Y85.246 E7.87259
G1 X128.913 Y86.002 E7.91426
G1 X129.702 Y86.677 E7.9488
G1 X129.865 Y86.82 E7.95601
G1 X131.039 Y87.868 E8.00835
G1 X131.465 Y88.258 E8.02756
G1 X132.348 Y89.17 E8.06978
G1 X133.06 Y89.999 E8.10613
G1 X133.198 Y90.162 E8.11323
G1 X134.076 Y91.227 E8.15914
G1 X134.542 Y91.808 E8.18391
G1 X135.266 Y92.831 E8.2256
G1 X135.847 Y93.765 E8.26218
G1 X135.955 Y93.942 E8.26908
G1 X136.627 Y95.071 E8.31278
G1 X137.041 Y95.792 E8.34043
G1 X137.594 Y96.902 E8.38168
G1 X138.004 Y97.862 E8.4164
G1 X138.085 Y98.056 E8.42339
G1 X138.642 Y99.438 E8.47295
G1 X138.883 Y100.06 E8.49513
G1 X139.27 Y101.269 E8.53735
G1 X139.542 Y102.335 E8.57395
G1 X139.593 Y102.546 E8.58117
G1 X139.927 Y103.98 E8.63014
G1 X140.065 Y104.612 E8.65165
G1 X140.259 Y105.849 E8.6933
G1 X140.361 Y106.9 E8.72842
G1 X140.38 Y107.111 E8.73547
G1 X140.485 Y108.476 E8.781
G1 X140.534 Y109.25 E8.80679
G1 X140.538 Y110.51 E8.8487
G1 X140.476 Y111.608 E8.88528
G1 X140.462 Y111.822 E8.89241
G1 X140.359 Y113.162 E8.93711
G1 X140.29 Y113.927 E8.96266
G1 X140.102 Y115.172 E9.00454
G1 X139.872 Y116.252 E9.04127
G1 X139.515 Y117.786 E9.09365
G1 X139.479 Y117.938 E9.09884
G1 X139.337 Y118.508 E9.11838
G1 X138.959 Y119.713 E9.16039
G1 X138.578 Y120.715 E9.19604
G1 X138.503 Y120.908 E9.20293
G1 X137.998 Y122.162 E9.24789
G1 X137.689 Y122.899 E9.27447
G1 X137.135 Y124.026 E9.31624
G1 X136.582 Y125 E9.35349
G1 X136.473 Y125.186 E9.36066
G1 X135.733 Y126.428 E9.40875
G1 X135.4 Y126.971 E9.42993
G1 X134.675 Y128.009 E9.47205
G1 X134.01 Y128.849 E9.50768
G1 X133.879 Y129.011 E9.51461
G1 X132.887 Y130.213 E9.56644
G1 X132.518 Y130.648 E9.58542
G1 X131.65 Y131.557 E9.62722
G1 X130.847 Y132.303 E9.66367
G1 X130.679 Y132.456 E9.67123
G1 X129.662 Y133.361 E9.71651
G1 X129.092 Y133.855 E9.7416
G1 X128.087 Y134.626 E9.78373
G1 X127.21 Y135.219 E9.81894
G1 X127.034 Y135.336 E9.82597
G1 X125.851 Y136.102 E9.87284
G1 X125.221 Y136.498 E9.89759
G1 X124.131 Y137.094 E9.93891
G1 X123.168 Y137.55 E9.97435
G1 X122.973 Y137.64 E9.9815
G1 X121.721 Y138.202 E10.02714
G1 X121.003 Y138.513 E10.05316
G1 X119.814 Y138.944 E10.09523
G1 X118.788 Y139.248 E10.13082
G1 X118.581 Y139.308 E10.13799
G1 X117.079 Y139.719 E10.18978
G1 X116.534 Y139.861 E10.20851
G1 X115.28 Y140.108 E10.25102
G1 X114.214 Y140.252 E10.2868
G1 X112.682 Y140.431 E10.3381
G1 X112.52 Y140.449 E10.34352
G1 X111.873 Y140.514 E10.36515
G1 X110.622 Y140.565 E10.40679
G1 X109.567 Y140.546 E10.44189
G1 X109.349 Y140.54 E10.44914
G1 X107.977 Y140.487 E10.49481
G1 X107.202 Y140.447 E10.52062
G1 X105.957 Y140.307 E10.56229
G1 X104.893 Y140.123 E10.5982
G1 X104.687 Y140.085 E10.60517
G1 X103.368 Y139.83 E10.64985
G1 X103.19 Y139.794 E10.65589
G1 X102.565 Y139.662 E10.67714
G1 X101.377 Y139.338 E10.7181
G1 X100.33 Y138.986 E10.75483
G1 X100.124 Y138.915 E10.76208
G1 X98.702 Y138.403 E10.81235
G1 X98.144 Y138.193 E10.83218
G1 X97.014 Y137.69 E10.87332
G1 X96.04 Y137.187 E10.90978
G1 X95.835 Y137.079 E10.91749
G1 X94.643 Y136.43 E10.96263
G1 X93.993 Y136.066 E10.98741
G1 X92.917 Y135.374 E11.02996
G1 X92.037 Y134.73 E11.06623
G1 X91.866 Y134.603 E11.07331
G1 X90.819 Y133.804 E11.11712
G1 X90.193 Y133.313 E11.14358
G1 X89.249 Y132.478 E11.18549
G1 X88.481 Y131.712 E11.22157
G1 X88.327 Y131.555 E11.22889
G1 X87.303 Y130.489 E11.27805
G1 X86.872 Y130.029 E11.29902
G1 X86.063 Y129.055 E11.34113
G1 X85.422 Y128.182 E11.37715
G1 X85.297 Y128.008 E11.38428
G1 X84.425 Y126.767 E11.43472
G1 X84.083 Y126.266 E11.4549
G1 X83.43 Y125.173 E11.49725
G1 X82.913 Y124.177 E11.53457
G1 X82.821 Y123.996 E11.54132
G1 X82.166 Y122.671 E11.59048
G1 X81.898 Y122.109 E11.61119
G1 X81.428 Y120.951 E11.65276
G1 X81.082 Y119.931 E11.68858
G1 X81.015 Y119.726 E11.69576
G1 X80.543 Y118.233 E11.74784
G1 X80.379 Y117.687 E11.7668
G1 X80.089 Y116.462 E11.80867
G1 X79.899 Y115.374 E11.8454
G1 X79.865 Y115.168 E11.85235
G1 X79.662 Y113.854 E11.89657
G1 X79.555 Y113.099 E11.92193
G1 X79.453 Y111.83 E11.96427
G1 X79.431 Y110.727 E12.00097
G1 X79.429 Y110.516 E12.00799
G1 X79.43 Y109.023 E12.05764
G1 X79.439 Y108.4 E12.07837
G1 X79.531 Y107.15 E12.12005
G1 X79.672 Y106.094 E12.15549
G1 X79.704 Y105.874 E12.16288
G1 X79.934 Y104.394 E12.2127
G1 X80.038 Y103.774 E12.23361
G1 X80.327 Y102.524 E12.27628
G1 X80.691 Y101.296 E12.31888
G1 X81.102 Y99.998 E12.36416
G1 X81.343 Y99.27 E12.38967
G1 X81.811 Y98.098 E12.43164
G1 X82.266 Y97.13 E12.46722
G1 X82.359 Y96.936 E12.47437
G1 X82.964 Y95.714 E12.51973
G1 X83.317 Y95.025 E12.54548
G1 X83.951 Y93.951 E12.58696
G1 X84.578 Y93.019 E12.62432
G1 X84.703 Y92.837 E12.63166
G1 X85.474 Y91.741 E12.67623
G1 X85.908 Y91.14 E12.70089
G1 X86.709 Y90.162 E12.74293
G1 X87.461 Y89.348 E12.77979
G1 X87.611 Y89.189 E12.78706
G1 X88.65 Y88.111 E12.83686
G1 X89.081 Y87.676 E12.85723
G0 F6000 X89.365 Y87.958
G1 F1200 X90.263 Y87.153 E12.89734
G1 X91.112 Y86.478 E12.93341
G1 X91.277 Y86.35 E12.94036
G1 X92.441 Y85.464 E12.98901
G1 X92.979 Y85.066 E13.01127
G1 X93.997 Y84.403 E13.05168
G1 X94.91 Y83.883 E13.08662
G1 X95.086 Y83.785 E13.09332
G1 X96.322 Y83.113 E13.14012
G1 X96.965 Y82.774 E13.16429
G1 X98.067 Y82.275 E13.20453
G1 X99.086 Y81.885 E13.24082
G1 X99.287 Y81.81 E13.24795
G1 X100.569 Y81.35 E13.29325
G1 X101.274 Y81.107 E13.31806
G1 X102.451 Y80.78 E13.35869
G1 X103.514 Y80.552 E13.39485
G1 X103.71 Y80.512 E13.4015
G1 X105.081 Y80.246 E13.44795
G1 X105.79 Y80.118 E13.47191
G1 X106.993 Y79.975 E13.5122
G1 X108.106 Y79.91 E13.54929
G1 X108.312 Y79.9 E13.55615
G1 X109.648 Y79.849 E13.60061
G1 X110.395 Y79.83 E13.62547
G1 X111.614 Y79.873 E13.66604
G1 X112.726 Y79.979 E13.70319
G1 X112.927 Y80 E13.70991
G1 X114.385 Y80.169 E13.75873
G1 X115.003 Y80.249 E13.77946
G1 X116.203 Y80.479 E13.82009
G1 X117.436 Y80.793 E13.86241
G1 X118.785 Y81.163 E13.90894
G1 X119.466 Y81.359 E13.93251
G1 X120.628 Y81.772 E13.97352
G1 X121.635 Y82.2 E14.00992
G1 X121.818 Y82.28 E14.01656
G1 X123.187 Y82.894 E14.06646
G1 X123.75 Y83.156 E14.08712
G1 X124.818 Y83.733 E14.12749
G1 X125.717 Y84.29 E14.16267
G1 X125.887 Y84.398 E14.16936
G1 X127.2 Y85.249 E14.22141
G1 X127.692 Y85.578 E14.24109
G1 X128.653 Y86.306 E14.28119
G1 X129.442 Y86.981 E14.31573
G1 X129.599 Y87.119 E14.32268
G1 X130.769 Y88.163 E14.37483
G1 X131.195 Y88.553 E14.39404
G1 X132.045 Y89.43 E14.43466
G1 X132.757 Y90.259 E14.47101
G1 X132.889 Y90.417 E14.47786
G1 X133.862 Y91.598 E14.52875
G1 X134.23 Y92.058 E14.54834
G1 X134.926 Y93.042 E14.58843
G1 X135.507 Y93.976 E14.62502
G1 X135.611 Y94.147 E14.63167
G1 X136.283 Y95.276 E14.67537
G1 X136.694 Y95.991 E14.7028
G1 X137.226 Y97.059 E14.74249
G1 X137.636 Y98.019 E14.77721
G1 X137.714 Y98.205 E14.78392
G1 X138.216 Y99.448 E14.8285
G1 X138.51 Y100.205 E14.85551
G1 X138.882 Y101.368 E14.89612
G1 X139.154 Y102.434 E14.93272
G1 X139.204 Y102.637 E14.93967
G1 X139.504 Y103.922 E14.98356
G1 X139.674 Y104.697 E15.00995
G1 X139.861 Y105.888 E15.05005
G1 X139.963 Y106.939 E15.08517
G1 X139.981 Y107.142 E15.09194
G1 X140.086 Y108.507 E15.13748
G1 X140.135 Y109.275 E15.16307
G1 X140.139 Y110.487 E15.20339
G1 X140.077 Y111.585 E15.23996
G1 X140.063 Y111.792 E15.24686
G1 X139.948 Y113.276 E15.29637
G1 X139.892 Y113.89 E15.31688
G1 X139.71 Y115.089 E15.35721
G1 X139.48 Y116.169 E15.39394
G1 X139.437 Y116.363 E15.40055
G1 X139.126 Y117.695 E15.44604
G1 X138.948 Y118.412 E15.47061
G1 X138.585 Y119.571 E15.51101
G1 X138.204 Y120.573 E15.54666
G1 X138.132 Y120.758 E15.55327
G1 X137.627 Y122.012 E15.59823
G1 X137.32 Y122.744 E15.62463
G1 X136.787 Y123.828 E15.66481
G1 X136.234 Y124.802 E15.70206
G1 X136.13 Y124.982 E15.70897
G1 X135.463 Y126.103 E15.75236
G1 X135.059 Y126.762 E15.77807
G1 X134.361 Y127.761 E15.8186
G1 X133.696 Y128.601 E15.85424
G1 X133.57 Y128.757 E15.86091
G1 X132.675 Y129.843 E15.90771
G1 X132.213 Y130.389 E15.9315
G1 X131.377 Y131.264 E15.97175
G1 X130.574 Y132.01 E16.00821
G1 X130.413 Y132.157 E16.01546
