;FLAVOR:Marlin
;TIME:10669
;Filament used: 6.66673m
;Layer height: 0.16
;MINX:29.081
;MINY:29.016
;MINZ:0.2
;MAXX:190.897
;MAXY:190.982
;MAXZ:22.08
;Generated with Cura_SteamEngine 4.7.1
M140 S60
M105
M190 S60
M104 S200
M105
M109 S200
M82 ;absolute extrusion mode
; Ender 3 Custom Start G-code
G92 E0 ; Reset Extruder
G28 ; Home all axes
G1 Z2.0 F3000 ; Move Z Axis up little to prevent scratching of Heat Bed
G1 X0.1 Y20 Z0.3 F5000.0 ; Move to start position
G1 X0.1 Y200.0 Z0.3 F1500.0 E15 ; Draw the first line
G1 X0.4 Y200.0 Z0.3 F5000.0 ; Move to side a little
G1 X0.4 Y20 Z0.3 F1500.0 E30 ; Draw the second line
G92 E0 ; Reset Extruder
G1 Z2.0 F3000 ; Move Z Axis up little to prevent scratching of Heat Bed
G1 X5 Y20 Z0.3 F5000.0 ; Move over to prevent blob squish
G92 E0
G92 E0
G1 F1500 E-6.5
;LAYER_COUNT:112
;LAYER:0
M107
G0 F6000 X37.885 Y38.362 Z0.2
;TYPE:SKIRT
G1 F1500 E0
G1 F1200 X38.554 Y37.704 E0.03121
G1 X39.083 Y37.256 E0.05427
G1 X39.824 Y36.668 E0.08573
G1 X42.759 Y34.419 E0.20871
G1 X42.882 Y34.326 E0.21384
G1 X43.491 Y33.873 E0.23908
G1 X44.267 Y33.346 E0.27028
G1 X45.084 Y32.887 E0.30145
G1 X45.68 Y32.607 E0.32335
G1 X46.538 Y32.235 E0.35446
G1 X46.706 Y32.164 E0.36052
G1 X50.201 Y30.718 E0.48632
G1 X50.822 Y30.472 E0.50854
G1 X52.134 Y30.046 E0.55442
G1 X52.169 Y30.037 E0.55562
G1 X53.169 Y29.828 E0.5896
G1 X53.55 Y29.767 E0.60243
G1 X53.853 Y29.723 E0.61262
G1 X58.112 Y29.163 E0.75549
G1 X58.779 Y29.085 E0.77783
G1 X59.715 Y29.016 E0.80904
G1 X60.652 Y29.027 E0.84021
G1 X61.299 Y29.081 E0.86181
G1 X62.223 Y29.186 E0.89274
G1 X62.417 Y29.21 E0.89924
G1 X65.797 Y29.655 E1.01263
G1 X66.776 Y29.799 E1.04554
G1 X67.404 Y29.91 E1.06675
G1 X67.505 Y29.931 E1.07018
G1 X68.414 Y30.161 E1.10137
G1 X69.331 Y30.479 E1.13365
G1 X69.927 Y30.716 E1.15498
G1 X73.57 Y32.224 E1.28612
G1 X74.819 Y32.76 E1.33132
G1 X77.177 Y33.737 E1.41622
G1 X79.522 Y34.63 E1.49968
G1 X81.909 Y35.464 E1.58377
G1 X84.308 Y36.227 E1.6675
G1 X86.708 Y36.916 E1.75055
G1 X89.159 Y37.544 E1.83471
G1 X91.575 Y38.093 E1.91711
G1 X94.084 Y38.588 E2.00217
G1 X96.596 Y39.009 E2.08688
G1 X99.045 Y39.349 E2.16912
G1 X101.556 Y39.626 E2.25314
G1 X104.072 Y39.831 E2.3371
G1 X106.59 Y39.965 E2.42097
G1 X109.115 Y40.027 E2.50498
G1 X111.637 Y40.019 E2.58886
G1 X114.124 Y39.94 E2.67162
G1 X116.655 Y39.788 E2.75595
G1 X119.155 Y39.567 E2.83943
G1 X121.648 Y39.275 E2.92291
G1 X124.13 Y38.913 E3.00634
G1 X126.626 Y38.477 E3.09061
G1 X129.116 Y37.968 E3.17514
G1 X131.517 Y37.408 E3.25714
G1 X133.975 Y36.759 E3.3417
G1 X136.375 Y36.053 E3.4249
G1 X138.799 Y35.264 E3.50969
G1 X141.16 Y34.422 E3.59306
G1 X143.499 Y33.511 E3.67655
G1 X145.788 Y32.544 E3.7592
G1 X147.558 Y31.727 E3.82404
G1 X147.927 Y31.576 E3.8373
G1 X148.821 Y31.16 E3.87009
G1 X149.688 Y30.802 E3.90129
G1 X150.599 Y30.513 E3.93308
G1 X150.914 Y30.432 E3.9439
G1 X151.519 Y30.285 E3.9646
G1 X154.669 Y29.565 E4.07208
G1 X155.385 Y29.412 E4.09643
G1 X156.31 Y29.255 E4.12763
G1 X157.245 Y29.178 E4.15884
G1 X157.858 Y29.17 E4.17923
G1 X158.553 Y29.181 E4.20235
G1 X161.599 Y29.181 E4.30366
G1 X162.252 Y29.17 E4.32538
G1 X163.189 Y29.194 E4.35655
G1 X164.121 Y29.298 E4.38774
G1 X164.734 Y29.41 E4.40847
G1 X165.446 Y29.562 E4.43268
G1 X168.308 Y30.217 E4.53034
G1 X169.174 Y30.421 E4.55993
G1 X170.077 Y30.675 E4.59113
G1 X171.279 Y31.149 E4.6341
G1 X172.186 Y31.57 E4.66736
G1 X174.864 Y32.861 E4.76624
G1 X175.63 Y33.243 E4.79471
G1 X176.451 Y33.698 E4.82593
G1 X177.456 Y34.392 E4.86655
G1 X178.128 Y34.915 E4.89487
G1 X180.518 Y36.823 E4.99659
G1 X181.204 Y37.387 E5.02613
G1 X181.901 Y38.014 E5.05731
G1 X182.72 Y38.909 E5.09766
G1 X183.175 Y39.465 E5.12156
G1 X185.208 Y42.021 E5.23018
G1 X185.679 Y42.629 E5.25576
G1 X186.221 Y43.395 E5.28697
G1 X186.717 Y44.243 E5.31965
G1 X186.884 Y44.567 E5.33177
G1 X187.172 Y45.147 E5.35331
G1 X188.531 Y47.963 E5.4573
G1 X188.893 Y48.74 E5.48581
G1 X189.253 Y49.606 E5.51701
G1 X189.529 Y50.473 E5.54727
G1 X189.626 Y50.841 E5.55993
G1 X189.767 Y51.42 E5.57975
G1 X190.498 Y54.613 E5.68869
G1 X190.649 Y55.315 E5.71258
G1 X190.807 Y56.239 E5.74376
G1 X190.886 Y57.174 E5.77497
G1 X190.894 Y57.798 E5.79572
G1 X190.884 Y58.451 E5.81744
G1 X190.882 Y61.034 E5.90335
G1 X190.888 Y61.296 E5.91207
G1 X190.897 Y62.277 E5.9447
G1 X190.865 Y63.214 E5.97588
G1 X190.708 Y64.409 E6.01597
G1 X190.677 Y64.574 E6.02155
G1 X190.615 Y64.88 E6.03194
G1 X190.516 Y65.332 E6.04733
G1 X189.784 Y68.54 E6.15677
G1 X189.617 Y69.22 E6.18006
G1 X189.354 Y70.12 E6.21124
G1 X189.169 Y70.627 E6.22919
G1 X188.895 Y71.267 E6.25235
G1 X188.555 Y71.994 E6.27904
G1 X187.222 Y74.755 E6.38102
G1 X186.582 Y76.036 E6.42865
G1 X185.456 Y78.367 E6.51475
G1 X184.44 Y80.632 E6.59731
G1 X183.485 Y82.929 E6.68005
G1 X182.576 Y85.307 E6.76472
G1 X181.731 Y87.721 E6.84979
G1 X180.973 Y90.099 E6.9328
G1 X180.282 Y92.502 E7.01597
G1 X179.645 Y94.974 E7.10087
G1 X179.1 Y97.363 E7.18237
G1 X178.6 Y99.893 E7.26815
G1 X178.186 Y102.349 E7.35099
G1 X177.834 Y104.862 E7.43539
G1 X177.557 Y107.357 E7.51888
G1 X177.351 Y109.868 E7.60268
G1 X177.214 Y112.4 E7.68701
G1 X177.15 Y114.88 E7.76953
G1 X177.157 Y117.41 E7.85368
G1 X177.234 Y119.922 E7.93726
G1 X177.385 Y122.456 E8.0217
G1 X177.602 Y124.939 E8.1046
G1 X177.896 Y127.471 E8.18938
G1 X178.253 Y129.932 E8.27209
G1 X178.689 Y132.435 E8.35659
G1 X179.187 Y134.885 E8.43974
G1 X179.75 Y137.309 E8.52251
G1 X180.403 Y139.788 E8.60778
G1 X181.102 Y142.169 E8.69031
G1 X181.885 Y144.582 E8.77469
G1 X182.724 Y146.938 E8.85787
G1 X183.954 Y150.071 E8.96981
G1 X184.452 Y151.274 E9.01312
G1 X184.514 Y151.427 E9.01861
G1 X184.759 Y152.045 E9.04072
G1 X185.067 Y152.931 E9.07192
G1 X185.298 Y153.84 E9.10311
G1 X185.41 Y154.461 E9.1241
G1 X185.544 Y155.351 E9.15404
G1 X185.573 Y155.555 E9.16089
G1 X185.879 Y157.882 E9.23895
G1 X185.975 Y158.693 E9.26612
G1 X186.045 Y159.628 E9.2973
G1 X186.034 Y160.566 E9.3285
G1 X185.98 Y161.213 E9.35009
G1 X185.876 Y162.13 E9.38079
G1 X185.852 Y162.328 E9.38742
G1 X185.526 Y164.794 E9.47016
G1 X185.436 Y165.419 E9.49116
G1 X185.263 Y166.341 E9.52236
G1 X185.012 Y167.244 E9.55353
G1 X184.782 Y167.885 E9.57618
G1 X184.456 Y168.712 E9.60575
G1 X184.385 Y168.887 E9.61203
G1 X183.488 Y171.053 E9.69001
G1 X183.163 Y171.812 E9.71747
G1 X182.757 Y172.657 E9.74865
G1 X182.28 Y173.465 E9.77985
G1 X181.897 Y174.017 E9.8022
G1 X181.353 Y174.752 E9.83261
G1 X181.237 Y174.906 E9.83903
G1 X179.83 Y176.739 E9.91588
G1 X179.323 Y177.384 E9.94317
G1 X178.712 Y178.096 E9.97438
G1 X178.043 Y178.753 E10.00556
G1 X177.522 Y179.193 E10.02824
G1 X176.671 Y179.868 E10.06437
G1 X174.807 Y181.297 E10.14249
G1 X174.141 Y181.793 E10.17011
G1 X173.365 Y182.321 E10.20133
G1 X172.548 Y182.78 E10.2325
G1 X171.967 Y183.053 E10.25385
G1 X171.161 Y183.404 E10.28309
G1 X170.982 Y183.48 E10.28955
G1 X168.659 Y184.442 E10.37318
G1 X168.041 Y184.688 E10.3953
G1 X167.156 Y184.997 E10.42648
G1 X166.247 Y185.23 E10.45769
G1 X165.605 Y185.346 E10.47939
G1 X164.672 Y185.486 E10.51077
G1 X164.477 Y185.514 E10.51732
G1 X162.208 Y185.813 E10.59344
G1 X161.368 Y185.912 E10.62157
G1 X160.432 Y185.982 E10.65279
G1 X159.495 Y185.971 E10.68396
G1 X158.84 Y185.916 E10.70582
G1 X157.929 Y185.812 E10.73632
G1 X157.742 Y185.789 E10.74258
G1 X155.269 Y185.463 E10.82555
G1 X154.644 Y185.373 E10.84655
G1 X153.722 Y185.2 E10.87775
G1 X152.819 Y184.949 E10.90892
G1 X152.182 Y184.72 E10.93144
G1 X151.159 Y184.316 E10.96802
G1 X150.211 Y183.923 E11.00215
G1 X147.771 Y182.952 E11.0895
G1 X145.445 Y182.101 E11.17188
G1 X143.047 Y181.301 E11.25595
G1 X140.633 Y180.57 E11.33985
G1 X138.2 Y179.908 E11.42371
G1 X135.774 Y179.32 E11.50673
G1 X133.312 Y178.797 E11.59045
G1 X130.817 Y178.342 E11.6748
G1 X128.338 Y177.961 E11.75822
G1 X125.842 Y177.649 E11.84188
G1 X123.335 Y177.408 E11.92565
G1 X120.82 Y177.237 E12.00949
G1 X118.274 Y177.137 E12.09424
G1 X115.784 Y177.109 E12.17706
G1 X113.299 Y177.152 E12.25973
G1 X110.731 Y177.269 E12.34523
G1 X108.26 Y177.451 E12.42764
G1 X105.744 Y177.709 E12.51176
G1 X103.22 Y178.04 E12.59642
G1 X100.761 Y178.433 E12.67925
G1 X98.292 Y178.9 E12.76282
G1 X95.803 Y179.444 E12.84756
G1 X93.372 Y180.049 E12.93088
G1 X90.96 Y180.721 E13.01416
G1 X88.537 Y181.471 E13.09853
G1 X86.193 Y182.269 E13.18088
G1 X83.8 Y183.161 E13.26582
G1 X81.471 Y184.103 E13.34938
G1 X79.169 Y185.112 E13.43298
G1 X76.884 Y186.193 E13.51705
G1 X75.613 Y186.827 E13.56429
G1 X75.12 Y187.078 E13.58269
G1 X74.525 Y187.359 E13.60458
G1 X73.639 Y187.745 E13.63672
G1 X73.456 Y187.822 E13.64333
G1 X69.996 Y189.255 E13.76789
G1 X69.333 Y189.519 E13.79162
G1 X68.448 Y189.828 E13.8228
G1 X67.54 Y190.061 E13.85398
G1 X66.894 Y190.178 E13.87581
G1 X65.973 Y190.316 E13.90679
G1 X65.778 Y190.343 E13.91334
G1 X62.19 Y190.815 E14.0337
G1 X61.36 Y190.913 E14.0615
G1 X60.425 Y190.982 E14.09268
G1 X59.487 Y190.971 E14.12388
G1 X58.851 Y190.917 E14.14511
G1 X57.975 Y190.818 E14.17443
G1 X57.774 Y190.794 E14.18117
G1 X53.993 Y190.295 E14.30801
G1 X53.353 Y190.203 E14.32952
G1 X52.431 Y190.03 E14.36072
G1 X51.527 Y189.779 E14.39192
G1 X50.878 Y189.546 E14.41486
G1 X49.842 Y189.136 E14.45192
G1 X46.53 Y187.764 E14.57115
G1 X45.747 Y187.428 E14.59949
G1 X44.902 Y187.022 E14.63067
G1 X44.095 Y186.545 E14.66185
G1 X43.54 Y186.159 E14.68434
G1 X42.677 Y185.519 E14.72007
G1 X39.749 Y183.272 E14.84283
G1 X39.133 Y182.786 E14.86893
G1 X38.422 Y182.174 E14.90013
G1 X37.766 Y181.503 E14.93134
G1 X37.346 Y181.007 E14.95296
G1 X36.767 Y180.28 E14.98387
G1 X36.645 Y180.123 E14.99048
G1 X34.43 Y177.236 E15.11151
G1 X34.327 Y177.1 E15.11718
G1 X33.937 Y176.575 E15.13893
G1 X33.41 Y175.799 E15.17013
G1 X32.951 Y174.98 E15.20136
G1 X32.682 Y174.408 E15.22238
G1 X32.317 Y173.57 E15.25278
G1 X32.239 Y173.387 E15.2594
G1 X30.858 Y170.053 E15.37943
G1 X30.541 Y169.256 E15.40795
G1 X30.232 Y168.37 E15.43916
G1 X30 Y167.462 E15.47033
G1 X29.887 Y166.834 E15.49156
G1 X29.75 Y165.923 E15.5222
G1 X29.722 Y165.725 E15.52885
G1 X29.25 Y162.146 E15.64892
G1 X29.23 Y161.986 E15.65428
G1 X29.15 Y161.302 E15.67719
G1 X29.081 Y160.367 E15.70837
G1 X29.092 Y159.429 E15.73957
G1 X29.146 Y158.781 E15.7612
G1 X29.249 Y157.875 E15.79152
G1 X29.273 Y157.681 E15.79803
G1 X29.747 Y154.083 E15.91873
G1 X29.865 Y153.269 E15.94609
G1 X30.039 Y152.347 E15.97729
G1 X30.292 Y151.444 E16.00848
G1 X30.514 Y150.827 E16.03029
G1 X30.85 Y149.973 E16.06082
G1 X30.924 Y149.789 E16.06741
G1 X32.369 Y146.304 E16.19289
G1 X32.798 Y145.308 E16.22896
G1 X33.801 Y142.888 E16.31609
G1 X34.7 Y140.532 E16.39996
G1 X35.524 Y138.173 E16.48307
G1 X36.295 Y135.748 E16.56771
G1 X36.976 Y133.375 E16.64982
G1 X37.614 Y130.892 E16.73509
G1 X38.157 Y128.506 E16.81647
G1 X38.655 Y125.976 E16.90224
G1 X39.074 Y123.487 E16.98619
G1 X39.418 Y121.007 E17.06946
G1 X39.691 Y118.534 E17.15221
G1 X39.901 Y115.971 E17.23774
G1 X40.032 Y113.511 E17.31968
G1 X40.096 Y110.953 E17.40479
G1 X40.089 Y108.463 E17.4876
G1 X40.008 Y105.906 E17.57269
G1 X39.86 Y103.426 E17.65533
G1 X39.639 Y100.932 E17.7386
G1 X39.344 Y98.408 E17.82312
G1 X38.983 Y95.932 E17.90634
G1 X38.546 Y93.429 E17.99085
G1 X38.044 Y90.969 E18.07436
G1 X37.482 Y88.554 E18.15683
G1 X36.833 Y86.094 E18.24145
G1 X36.119 Y83.668 E18.32556
G1 X35.345 Y81.287 E18.40883
G1 X34.504 Y78.928 E18.49213
G1 X33.575 Y76.541 E18.57732
G1 X32.717 Y74.499 E18.65099
G1 X32.319 Y73.582 E18.68424
G1 X32.243 Y73.403 E18.69071
G1 X30.783 Y69.87 E18.81785
G1 X30.563 Y69.315 E18.83771
G1 X30.174 Y68.146 E18.87869
G1 X30.121 Y67.951 E18.88541
G1 X29.847 Y66.627 E18.93038
G1 X29.742 Y65.889 E18.95517
G1 X29.245 Y62.099 E19.08231
G1 X29.149 Y61.279 E19.10977
G1 X29.081 Y60.344 E19.14095
G1 X29.093 Y59.406 E19.17215
G1 X29.147 Y58.767 E19.19348
G1 X29.255 Y57.82 E19.22518
G1 X29.278 Y57.629 E19.23158
G1 X29.742 Y54.107 E19.34973
G1 X29.861 Y53.283 E19.37742
G1 X30.035 Y52.361 E19.40863
G1 X30.287 Y51.458 E19.43981
G1 X30.516 Y50.821 E19.46232
G1 X30.852 Y49.97 E19.49275
G1 X30.922 Y49.797 E19.49896
G1 X32.366 Y46.317 E19.62428
G1 X32.648 Y45.663 E19.64796
G1 X33.056 Y44.818 E19.67917
G1 X33.534 Y44.011 E19.71037
G1 X33.909 Y43.472 E19.73221
G1 X34.414 Y42.79 E19.76043
G1 X34.527 Y42.64 E19.76668
G1 X36.858 Y39.602 E19.89404
G1 X37.274 Y39.073 E19.91642
G1 X37.885 Y38.362 E19.9476
G0 F6000 X38.189 Y38.622
G1 F1200 X38.847 Y37.979 E19.9782
G1 X39.332 Y37.57 E19.99931
G1 X40.073 Y36.982 E20.03077
G1 X40.217 Y36.87 E20.03684
G1 X43.121 Y34.647 E20.15847
G1 X43.73 Y34.194 E20.18372
G1 X44.491 Y33.677 E20.21432
G1 X45.295 Y33.228 E20.24495
G1 X45.839 Y32.974 E20.26491
G1 X46.859 Y32.533 E20.30187
G1 X50.197 Y31.151 E20.42204
G1 X50.969 Y30.844 E20.44967
G1 X52.233 Y30.433 E20.49388
G1 X52.268 Y30.424 E20.49508
G1 X53.232 Y30.223 E20.52783
G1 X53.613 Y30.162 E20.54066
G1 X53.905 Y30.12 E20.55048
G1 X58.006 Y29.58 E20.68805
G1 X58.826 Y29.483 E20.71552
G1 X59.744 Y29.416 E20.74613
G1 X60.665 Y29.428 E20.77677
G1 X61.254 Y29.479 E20.79643
G1 X62.178 Y29.584 E20.82736
G1 X62.365 Y29.607 E20.83363
G1 X65.913 Y30.075 E20.95266
G1 X66.717 Y30.194 E20.97969
G1 X67.323 Y30.302 E21.00016
G1 X67.424 Y30.323 E21.00359
G1 X68.316 Y30.549 E21.0342
G1 X69.183 Y30.851 E21.06473
G1 X69.919 Y31.145 E21.09109
G1 X73.417 Y32.594 E21.21702
G1 X74.594 Y33.1 E21.25964
G1 X77.048 Y34.116 E21.34798
G1 X79.364 Y34.998 E21.4304
G1 X81.793 Y35.847 E21.51598
G1 X84.182 Y36.606 E21.59936
G1 X86.645 Y37.313 E21.68458
G1 X89.042 Y37.928 E21.76689
G1 X91.507 Y38.488 E21.85097
G1 X94.012 Y38.982 E21.93589
G1 X96.511 Y39.401 E22.02016
G1 X99.014 Y39.748 E22.10421
G1 X101.519 Y40.025 E22.18804
G1 X104.052 Y40.231 E22.27256
G1 X106.56 Y40.364 E22.3561
G1 X109.106 Y40.428 E22.4408
G1 X111.617 Y40.42 E22.52432
G1 X114.161 Y40.339 E22.60898
G1 X116.678 Y40.187 E22.69284
G1 X119.2 Y39.964 E22.77705
G1 X121.72 Y39.669 E22.86144
G1 X124.186 Y39.31 E22.94433
G1 X126.704 Y38.869 E23.02935
G1 X129.181 Y38.363 E23.11344
G1 X131.637 Y37.79 E23.19732
G1 X134.085 Y37.143 E23.28153
G1 X136.507 Y36.431 E23.3655
G1 X138.909 Y35.65 E23.44951
G1 X141.302 Y34.795 E23.53402
G1 X143.664 Y33.876 E23.61832
G1 X145.957 Y32.907 E23.70112
G1 X147.726 Y32.091 E23.76591
G1 X148.09 Y31.942 E23.77899
G1 X148.99 Y31.523 E23.81201
G1 X149.841 Y31.172 E23.84263
G1 X150.703 Y30.899 E23.8727
G1 X151.008 Y30.821 E23.88318
G1 X151.754 Y30.641 E23.9087
G1 X154.753 Y29.956 E24.01102
G1 X155.469 Y29.803 E24.03537
G1 X156.377 Y29.65 E24.06599
G1 X157.294 Y29.576 E24.09659
G1 X157.852 Y29.57 E24.11515
G1 X158.547 Y29.581 E24.13827
G1 X161.606 Y29.581 E24.24001
G1 X162.259 Y29.57 E24.26174
G1 X163.179 Y29.594 E24.29235
G1 X164.094 Y29.698 E24.32297
G1 X164.65 Y29.802 E24.34179
G1 X165.516 Y29.988 E24.37125
G1 X168.216 Y30.606 E24.46337
G1 X169.082 Y30.81 E24.49296
G1 X169.969 Y31.06 E24.52362
G1 X171.111 Y31.511 E24.56445
G1 X171.868 Y31.862 E24.59221
G1 X174.827 Y33.289 E24.70147
G1 X175.451 Y33.601 E24.72467
G1 X176.256 Y34.048 E24.7553
G1 X177.21 Y34.708 E24.79388
G1 X177.878 Y35.228 E24.82204
G1 X180.268 Y37.136 E24.92375
G1 X180.949 Y37.696 E24.95308
G1 X181.633 Y38.311 E24.98367
G1 X182.41 Y39.162 E25.022
G1 X182.959 Y39.834 E25.05086
G1 X184.892 Y42.266 E25.15419
G1 X185.363 Y42.874 E25.17977
G1 X185.894 Y43.626 E25.21039
G1 X186.363 Y44.429 E25.24132
G1 X186.526 Y44.745 E25.25314
G1 X186.811 Y45.321 E25.27452
G1 X188.234 Y48.27 E25.38342
G1 X188.531 Y48.908 E25.40683
G1 X188.883 Y49.759 E25.43746
G1 X189.144 Y50.579 E25.46608
G1 X189.237 Y50.936 E25.47835
G1 X189.378 Y51.515 E25.49817
G1 X190.107 Y54.697 E25.60675
G1 X190.258 Y55.399 E25.63063
G1 X190.412 Y56.307 E25.66126
G1 X190.487 Y57.224 E25.69186
G1 X190.494 Y57.792 E25.71076
G1 X190.484 Y58.445 E25.73248
G1 X190.482 Y61.045 E25.81895
G1 X190.488 Y61.3 E25.82744
G1 X190.497 Y62.281 E25.86007
G1 X190.465 Y63.201 E25.89069
G1 X190.315 Y64.335 E25.92873
G1 X190.284 Y64.5 E25.93432
G1 X190.224 Y64.795 E25.94433
G1 X190.126 Y65.243 E25.95958
G1 X189.436 Y68.271 E26.06287
G1 X189.395 Y68.444 E26.06879
G1 X189.228 Y69.124 E26.09208
G1 X188.97 Y70.008 E26.12271
G1 X188.796 Y70.482 E26.1395
G1 X188.532 Y71.098 E26.16179
G1 X188.195 Y71.82 E26.18829
G1 X186.862 Y74.581 E26.29026
