;FLAVOR:Marlin
;TIME:1338
;Filament used: 0.897305m
;Layer height: 0.16
;MINX:82.232
;MINY:82.247
;MINZ:0.2
;MAXX:137.768
;MAXY:137.753
;MAXZ:2.88
;Generated with Cura_SteamEngine 4.7.1
M140 S60
M105
M190 S60
M104 S200
M105
M109 S200
M82 ;absolute extrusion mode
; Ender 3 Custom Start G-code
G92 E0 ; Reset Extruder
G28 ; Home all axes
G1 Z2.0 F3000 ; Move Z Axis up little to prevent scratching of Heat Bed
G1 X0.1 Y20 Z0.3 F5000.0 ; Move to start position
G1 X0.1 Y200.0 Z0.3 F1500.0 E15 ; Draw the first line
G1 X0.4 Y200.0 Z0.3 F5000.0 ; Move to side a little
G1 X0.4 Y20 Z0.3 F1500.0 E30 ; Draw the second line
G92 E0 ; Reset Extruder
G1 Z2.0 F3000 ; Move Z Axis up little to prevent scratching of Heat Bed
G1 X5 Y20 Z0.3 F5000.0 ; Move over to prevent blob squish
G92 E0
G92 E0
G1 F1500 E-6.5
;LAYER_COUNT:16
;LAYER:0
M107
G0 F6000 X90.033 Y90.693 Z0.2
;TYPE:SKIRT
G1 F1500 E0
G1 F1200 X90.728 Y90.024 E0.03209
G1 X90.878 Y89.883 E0.03893
G1 X91.666 Y89.153 E0.07466
G1 X92.122 Y88.742 E0.09508
G1 X93.125 Y87.939 E0.13781
G1 X93.929 Y87.369 E0.17059
G1 X94.096 Y87.253 E0.17735
G1 X94.837 Y86.748 E0.20718
G1 X95.504 Y86.307 E0.23377
G1 X96.597 Y85.674 E0.27578
G1 X97.458 Y85.239 E0.30787
G1 X97.645 Y85.147 E0.3148
G1 X98.554 Y84.71 E0.34835
G1 X99.162 Y84.426 E0.37066
G1 X100.395 Y83.938 E0.41477
G1 X101.287 Y83.646 E0.44599
G1 X101.472 Y83.587 E0.45245
G1 X102.528 Y83.263 E0.48918
G1 X103.104 Y83.094 E0.50915
G1 X104.355 Y82.805 E0.55185
G1 X105.33 Y82.639 E0.58475
G1 X105.546 Y82.604 E0.59203
G1 X106.447 Y82.469 E0.62233
G1 X107.197 Y82.366 E0.64751
G1 X108.486 Y82.267 E0.69051
G1 X109.48 Y82.249 E0.72357
G1 X109.679 Y82.247 E0.73019
G1 X110.548 Y82.247 E0.75909
G1 X111.352 Y82.257 E0.78584
G1 X112.639 Y82.351 E0.82876
G1 X113.769 Y82.501 E0.86667
G1 X114.706 Y82.642 E0.89819
G1 X115.476 Y82.769 E0.92414
G1 X116.727 Y83.052 E0.9668
G1 X117.646 Y83.317 E0.99861
G1 X117.845 Y83.376 E1.00552
G1 X118.846 Y83.686 E1.04037
G1 X119.464 Y83.886 E1.06198
G1 X120.676 Y84.359 E1.10525
G1 X121.593 Y84.781 E1.13882
G1 X122.512 Y85.222 E1.17273
G1 X123.247 Y85.587 E1.20002
G1 X124.379 Y86.236 E1.24342
G1 X125.169 Y86.754 E1.27484
G1 X125.337 Y86.867 E1.28157
G1 X126.222 Y87.472 E1.31723
G1 X126.742 Y87.837 E1.33836
G1 X127.756 Y88.642 E1.38142
G1 X128.468 Y89.279 E1.4132
G1 X128.613 Y89.411 E1.41972
G1 X129.272 Y90.022 E1.44961
G1 X129.868 Y90.59 E1.47699
G1 X130.745 Y91.532 E1.5198
G1 X131.357 Y92.272 E1.55174
G1 X131.474 Y92.416 E1.55791
G1 X132.034 Y93.117 E1.58775
G1 X132.52 Y93.742 E1.61408
G1 X133.259 Y94.818 E1.6575
G1 X133.777 Y95.679 E1.69092
G1 X133.882 Y95.858 E1.69782
G1 X134.305 Y96.592 E1.726
G1 X134.706 Y97.308 E1.75329
G1 X135.269 Y98.469 E1.79621
G1 X135.613 Y99.3 E1.82612
G1 X135.687 Y99.484 E1.83272
G1 X136.032 Y100.362 E1.8641
G1 X136.319 Y101.122 E1.89112
G1 X136.7 Y102.35 E1.93388
G1 X136.938 Y103.311 E1.96681
G1 X136.987 Y103.516 E1.97382
G1 X137.209 Y104.494 E2.00717
G1 X137.347 Y105.139 E2.02911
G1 X137.543 Y106.426 E2.07241
G1 X137.651 Y107.602 E2.11169
G1 X137.714 Y108.433 E2.13941
G1 X137.766 Y109.271 E2.16734
G1 X137.768 Y110.567 E2.21044
G1 X137.71 Y111.581 E2.24422
G1 X137.698 Y111.768 E2.25045
G1 X137.634 Y112.629 E2.27917
G1 X137.62 Y112.799 E2.28484
G1 X137.563 Y113.433 E2.30601
G1 X137.374 Y114.701 E2.34865
G1 X137.18 Y115.628 E2.38015
G1 X137.14 Y115.811 E2.38639
G1 X136.905 Y116.841 E2.42152
G1 X136.749 Y117.484 E2.44353
G1 X136.373 Y118.713 E2.48628
G1 X136.045 Y119.598 E2.51767
G1 X135.967 Y119.803 E2.52496
G1 X135.618 Y120.69 E2.55667
G1 X135.324 Y121.409 E2.5825
G1 X134.77 Y122.563 E2.62508
G1 X134.215 Y123.564 E2.66315
G1 X133.772 Y124.333 E2.69266
G1 X133.358 Y125.03 E2.71963
G1 X132.633 Y126.099 E2.76259
G1 X132.023 Y126.894 E2.79592
G1 X131.892 Y127.061 E2.80298
G1 X131.284 Y127.821 E2.83535
G1 X130.837 Y128.365 E2.85877
G1 X129.97 Y129.304 E2.90127
G1 X129.288 Y129.961 E2.93277
G1 X129.141 Y130.1 E2.9395
G1 X128.483 Y130.711 E2.96937
G1 X127.876 Y131.259 E2.99657
G1 X126.875 Y132.061 E3.03923
G1 X126.071 Y132.631 E3.07201
G1 X125.904 Y132.747 E3.07877
G1 X125.163 Y133.252 E3.10859
G1 X124.496 Y133.693 E3.13519
G1 X123.403 Y134.326 E3.1772
G1 X122.542 Y134.761 E3.20928
G1 X122.355 Y134.853 E3.21621
G1 X121.446 Y135.29 E3.24976
G1 X120.838 Y135.574 E3.27208
G1 X119.605 Y136.062 E3.31618
G1 X118.713 Y136.354 E3.3474
G1 X118.533 Y136.411 E3.35368
G1 X117.469 Y136.738 E3.3907
G1 X116.888 Y136.908 E3.41084
G1 X115.645 Y137.195 E3.45327
G1 X114.67 Y137.361 E3.48616
G1 X114.454 Y137.396 E3.49344
G1 X113.553 Y137.531 E3.52374
G1 X112.803 Y137.634 E3.54892
G1 X111.514 Y137.733 E3.59192
G1 X110.52 Y137.751 E3.62499
G1 X110.321 Y137.753 E3.63161
G1 X109.3 Y137.752 E3.66557
G1 X108.648 Y137.743 E3.68725
G1 X107.361 Y137.649 E3.73017
G1 X106.231 Y137.499 E3.76809
G1 X105.294 Y137.358 E3.7996
G1 X104.524 Y137.231 E3.82556
G1 X103.273 Y136.948 E3.86822
G1 X102.354 Y136.683 E3.90003
G1 X102.155 Y136.624 E3.90693
G1 X101.154 Y136.314 E3.94179
G1 X100.536 Y136.114 E3.96339
G1 X99.328 Y135.642 E4.00653
G1 X98.397 Y135.214 E4.04061
G1 X98.214 Y135.128 E4.04733
G1 X97.358 Y134.714 E4.07896
G1 X96.753 Y134.413 E4.10143
G1 X95.618 Y133.762 E4.14495
G1 X94.821 Y133.239 E4.17666
G1 X93.778 Y132.528 E4.21864
G1 X93.258 Y132.163 E4.23977
G1 X92.244 Y131.358 E4.28284
G1 X91.532 Y130.721 E4.31461
G1 X91.387 Y130.589 E4.32113
G1 X90.728 Y129.978 E4.35102
G1 X90.129 Y129.407 E4.37855
G1 X89.251 Y128.464 E4.4214
G1 X88.641 Y127.726 E4.45325
G1 X87.863 Y126.752 E4.49471
G1 X87.475 Y126.252 E4.51576
G1 X86.738 Y125.177 E4.55911
G1 X86.222 Y124.319 E4.59241
G1 X86.119 Y124.144 E4.59916
G1 X85.678 Y123.379 E4.62853
G1 X85.287 Y122.68 E4.65517
G1 X84.73 Y121.528 E4.69773
G1 X84.387 Y120.699 E4.72757
G1 X84.312 Y120.514 E4.73421
G1 X83.966 Y119.633 E4.76569
G1 X83.68 Y118.875 E4.79264
G1 X83.298 Y117.645 E4.83547
G1 X83.061 Y116.687 E4.8683
G1 X83.013 Y116.484 E4.87524
G1 X82.791 Y115.506 E4.90859
G1 X82.653 Y114.861 E4.93053
G1 X82.457 Y113.574 E4.97383
G1 X82.349 Y112.396 E5.01317
G1 X82.285 Y111.55 E5.04139
G1 X82.234 Y110.727 E5.06882
G1 X82.232 Y109.435 E5.11179
G1 X82.292 Y108.383 E5.14684
G1 X82.305 Y108.179 E5.15364
G1 X82.369 Y107.333 E5.18185
G1 X82.437 Y106.566 E5.20746
G1 X82.626 Y105.299 E5.25007
G1 X82.82 Y104.372 E5.28157
G1 X82.862 Y104.182 E5.28804
G1 X83.111 Y103.092 E5.32523
G1 X83.252 Y102.512 E5.34508
G1 X83.627 Y101.287 E5.38769
G1 X83.955 Y100.402 E5.41909
G1 X84.033 Y100.197 E5.42638
G1 X84.457 Y99.122 E5.46482
G1 X84.679 Y98.582 E5.48423
G1 X85.23 Y97.437 E5.5265
G1 X85.785 Y96.436 E5.56457
G1 X86.232 Y95.66 E5.59435
G1 X86.644 Y94.968 E5.62114
G1 X87.367 Y93.901 E5.66401
G1 X87.977 Y93.106 E5.69734
G1 X88.108 Y92.939 E5.70439
G1 X88.716 Y92.179 E5.73677
G1 X89.163 Y91.635 E5.76018
G1 X90.033 Y90.693 E5.80283
G0 F6000 X90.311 Y90.981
G1 F1200 X91.006 Y90.312 E5.83492
G1 X91.15 Y90.176 E5.84151
G1 X91.934 Y89.45 E5.87705
G1 X92.39 Y89.039 E5.89746
G1 X93.356 Y88.266 E5.93861
G1 X94.16 Y87.696 E5.97139
G1 X94.321 Y87.584 E5.97792
G1 X95.199 Y86.987 E6.01323
G1 X95.724 Y86.641 E6.03414
G1 X96.777 Y86.031 E6.07462
G1 X97.638 Y85.596 E6.1067
G1 X97.818 Y85.507 E6.11338
G1 X98.723 Y85.072 E6.14678
G1 X99.331 Y84.788 E6.1691
G1 X100.519 Y84.318 E6.21159
G1 X101.411 Y84.026 E6.24281
G1 X101.59 Y83.969 E6.24905
G1 X102.506 Y83.687 E6.28093
G1 X103.217 Y83.478 E6.30558
G1 X104.422 Y83.199 E6.34672
G1 X105.397 Y83.033 E6.37961
G1 X105.605 Y83 E6.38662
G1 X106.643 Y82.845 E6.42153
G1 X107.251 Y82.762 E6.44194
G1 X108.493 Y82.667 E6.48337
G1 X109.487 Y82.649 E6.51643
G1 X109.679 Y82.647 E6.52282
G1 X110.548 Y82.647 E6.55172
G1 X111.346 Y82.657 E6.57826
G1 X112.587 Y82.747 E6.61965
G1 X113.519 Y82.87 E6.65092
G1 X113.709 Y82.897 E6.6573
G1 X114.801 Y83.062 E6.69403
G1 X115.411 Y83.163 E6.7146
G1 X116.616 Y83.436 E6.75569
G1 X117.535 Y83.701 E6.7875
G1 X117.727 Y83.758 E6.79416
G1 X118.588 Y84.024 E6.82414
G1 X119.341 Y84.267 E6.85045
G1 X120.508 Y84.723 E6.89212
G1 X121.425 Y85.145 E6.9257
G1 X121.591 Y85.223 E6.9318
G1 X122.464 Y85.644 E6.96404
G1 X123.069 Y85.945 E6.98651
G1 X124.159 Y86.571 E7.02832
G1 X125.112 Y87.197 E7.06624
G1 X125.877 Y87.719 E7.09704
G1 X126.512 Y88.164 E7.12283
G1 X127.49 Y88.94 E7.16436
G1 X128.202 Y89.577 E7.19613
G1 X128.341 Y89.704 E7.2024
G1 X129.117 Y90.425 E7.23763
G1 X129.592 Y90.879 E7.25948
G1 X130.436 Y91.786 E7.30069
G1 X131.048 Y92.526 E7.33263
G1 X131.162 Y92.666 E7.33863
G1 X131.812 Y93.481 E7.37331
G1 X132.205 Y93.987 E7.39461
G1 X132.916 Y95.024 E7.43643
G1 X133.434 Y95.885 E7.46985
G1 X133.535 Y96.057 E7.47649
G1 X134.026 Y96.911 E7.50925
G1 X134.357 Y97.503 E7.53181
G1 X134.899 Y98.622 E7.57317
G1 X135.315 Y99.63 E7.60943
G1 X135.66 Y100.508 E7.64081
G1 X135.945 Y101.263 E7.66765
G1 X136.312 Y102.446 E7.70885
G1 X136.55 Y103.407 E7.74178
G1 X136.597 Y103.605 E7.74854
G1 X136.817 Y104.577 E7.78169
G1 X136.955 Y105.222 E7.80363
G1 X137.145 Y106.463 E7.84539
G1 X137.237 Y107.457 E7.87859
G1 X137.252 Y107.633 E7.88446
G1 X137.315 Y108.464 E7.91218
G1 X137.366 Y109.295 E7.93987
G1 X137.369 Y110.544 E7.98142
G1 X137.311 Y111.558 E8.0152
G1 X137.299 Y111.739 E8.02123
G1 X137.235 Y112.6 E8.04995
G1 X137.164 Y113.397 E8.07656
G1 X136.982 Y114.619 E8.11765
G1 X136.75 Y115.722 E8.15514
G1 X136.552 Y116.594 E8.18488
G1 X136.36 Y117.389 E8.21208
G1 X135.998 Y118.574 E8.25329
G1 X135.67 Y119.459 E8.28469
G1 X135.595 Y119.656 E8.2917
G1 X135.246 Y120.543 E8.3234
G1 X134.954 Y121.257 E8.34906
G1 X134.42 Y122.37 E8.39012
G1 X133.956 Y123.208 E8.42197
G1 X133.868 Y123.364 E8.42793
G1 X133.348 Y124.265 E8.46253
G1 X133.014 Y124.826 E8.48425
G1 X132.316 Y125.856 E8.52563
G1 X131.706 Y126.651 E8.55896
G1 X131.58 Y126.812 E8.56576
G1 X130.975 Y127.568 E8.59796
G1 X130.528 Y128.112 E8.62138
G1 X129.692 Y129.016 E8.66234
G1 X129.01 Y129.673 E8.69383
G1 X128.869 Y129.807 E8.7003
G1 X128.211 Y130.418 E8.73017
G1 X127.609 Y130.962 E8.75715
G1 X126.644 Y131.734 E8.79826
G1 X125.84 Y132.304 E8.83104
G1 X125.679 Y132.416 E8.83756
G1 X124.801 Y133.013 E8.87287
G1 X124.276 Y133.359 E8.89379
G1 X123.223 Y133.969 E8.93426
G1 X122.362 Y134.404 E8.96635
G1 X122.182 Y134.493 E8.97302
G1 X121.277 Y134.928 E9.00642
G1 X120.669 Y135.212 E9.02874
G1 X119.481 Y135.682 E9.07123
G1 X118.589 Y135.974 E9.10245
G1 X118.415 Y136.029 E9.10852
G1 X117.504 Y136.31 E9.14023
G1 X116.776 Y136.524 E9.16547
G1 X115.578 Y136.801 E9.20636
G1 X114.603 Y136.967 E9.23926
G1 X114.395 Y137 E9.24626
G1 X113.357 Y137.155 E9.28117
G1 X112.749 Y137.238 E9.30158
G1 X111.507 Y137.333 E9.34301
G1 X110.513 Y137.351 E9.37608
G1 X110.321 Y137.353 E9.38246
G1 X109.306 Y137.352 E9.41622
G1 X108.654 Y137.343 E9.43791
G1 X107.413 Y137.253 E9.47929
G1 X106.481 Y137.13 E9.51056
G1 X106.291 Y137.103 E9.51694
G1 X105.199 Y136.938 E9.55368
G1 X104.589 Y136.837 E9.57424
G1 X103.384 Y136.564 E9.61534
G1 X102.465 Y136.299 E9.64715
G1 X102.273 Y136.242 E9.65381
G1 X101.412 Y135.976 E9.68378
G1 X100.659 Y135.733 E9.7101
G1 X99.495 Y135.279 E9.75165
G1 X98.564 Y134.851 E9.78573
G1 X98.387 Y134.768 E9.79224
G1 X97.653 Y134.414 E9.81934
G1 X96.931 Y134.055 E9.84616
G1 X95.837 Y133.427 E9.88811
G1 X95.04 Y132.904 E9.91982
G1 X94.883 Y132.799 E9.9261
G1 X94.008 Y132.201 E9.96135
G1 X93.488 Y131.836 E9.98248
G1 X92.51 Y131.06 E10.02401
G1 X91.798 Y130.423 E10.05578
G1 X91.659 Y130.296 E10.06204
G1 X90.882 Y129.574 E10.09732
G1 X90.405 Y129.118 E10.11927
G1 X89.56 Y128.209 E10.16055
G1 X88.837 Y127.333 E10.19833
G1 X88.27 Y126.623 E10.22855
G1 X87.791 Y126.006 E10.25453
G1 X87.081 Y124.971 E10.29627
G1 X86.565 Y124.113 E10.32957
G1 X86.466 Y123.944 E10.33609
G1 X85.95 Y123.048 E10.37048
G1 X85.636 Y122.485 E10.39192
G1 X85.099 Y121.375 E10.43293
G1 X84.756 Y120.546 E10.46277
G1 X84.283 Y119.343 E10.50576
G1 X84.054 Y118.734 E10.5274
G1 X83.686 Y117.549 E10.56867
G1 X83.449 Y116.591 E10.6015
G1 X83.403 Y116.395 E10.60819
G1 X83.183 Y115.423 E10.64134
G1 X83.045 Y114.778 E10.66328
G1 X82.855 Y113.537 E10.70504
G1 X82.763 Y112.543 E10.73824
G1 X82.748 Y112.366 E10.74415
G1 X82.673 Y111.362 E10.77763
G1 X82.633 Y110.703 E10.79959
G1 X82.631 Y109.457 E10.84103
G1 X82.691 Y108.405 E10.87608
G1 X82.704 Y108.209 E10.88261
G1 X82.768 Y107.363 E10.91083
G1 X82.836 Y106.602 E10.93624
G1 X83.018 Y105.381 E10.9773
G1 X83.212 Y104.454 E11.0088
G1 X83.252 Y104.271 E11.01503
G1 X83.5 Y103.186 E11.05205
G1 X83.641 Y102.606 E11.0719
G1 X84.002 Y101.426 E11.11295
G1 X84.33 Y100.541 E11.14434
G1 X84.405 Y100.344 E11.15135
G1 X84.767 Y99.424 E11.18423
G1 X85.049 Y98.735 E11.20899
G1 X85.58 Y97.63 E11.24977
G1 X86.044 Y96.792 E11.28163
G1 X86.132 Y96.636 E11.28758
G1 X86.657 Y95.726 E11.32253
G1 X86.987 Y95.172 E11.34397
G1 X87.684 Y94.144 E11.38528
G1 X88.294 Y93.349 E11.41861
G1 X88.42 Y93.188 E11.42541
G1 X89.025 Y92.432 E11.45762
G1 X89.472 Y91.888 E11.48104
G1 X90.311 Y90.981 E11.52213
G0 F6000 X90.588 Y91.269
G1 F1200 X91.283 Y90.6 E11.55422
G1 X92.202 Y89.747 E11.59592
G1 X92.658 Y89.336 E11.61634
G1 X93.588 Y88.592 E11.65595
G1 X94.392 Y88.022 E11.68873
G1 X94.547 Y87.914 E11.69501
G1 X95.419 Y87.321 E11.73009
G1 X95.944 Y86.975 E11.751
G1 X96.957 Y86.388 E11.78994
G1 X97.818 Y85.953 E11.82202
G1 X97.992 Y85.867 E11.82848
G1 X98.892 Y85.434 E11.8617
G1 X99.5 Y85.15 E11.88402
G1 X100.644 Y84.698 E11.92493
G1 X101.536 Y84.406 E11.95615
G1 X102.624 Y84.07 E11.99402
G1 X103.329 Y83.862 E12.01847
G1 X104.489 Y83.594 E12.05806
G1 X105.464 Y83.428 E12.09096
G1 X105.665 Y83.396 E12.09773
G1 X106.697 Y83.242 E12.13243
G1 X107.305 Y83.159 E12.15284
G1 X108.5 Y83.067 E12.19271
G1 X109.494 Y83.049 E12.22577
G1 X109.679 Y83.047 E12.23193
G1 X110.548 Y83.047 E12.26083
G1 X111.341 Y83.057 E12.28721
G1 X112.535 Y83.144 E12.32702
G1 X113.467 Y83.267 E12.35829
G1 X113.65 Y83.293 E12.36444
G1 X114.735 Y83.457 E12.40094
G1 X115.345 Y83.558 E12.4215
G1 X116.505 Y83.82 E12.46106
G1 X117.424 Y84.085 E12.49287
G1 X117.609 Y84.14 E12.49929
G1 X118.47 Y84.406 E12.52926
G1 X119.218 Y84.648 E12.55541
G1 X120.341 Y85.086 E12.5955
G1 X121.258 Y85.508 E12.62907
G1 X121.417 Y85.583 E12.63492
G1 X122.285 Y86.002 E12.66698
G1 X122.89 Y86.303 E12.68945
G1 X123.94 Y86.905 E12.72971
G1 X124.73 Y87.423 E12.76113
G1 X125.762 Y88.126 E12.80266
G1 X126.282 Y88.491 E12.82379
G1 X127.223 Y89.238 E12.86375
G1 X127.935 Y89.875 E12.89553
G1 X128.069 Y89.997 E12.90155
G1 X128.841 Y90.714 E12.9366
G1 X129.316 Y91.168 E12.95845
G1 X130.128 Y92.041 E12.99811
G1 X130.74 Y92.781 E13.03005
G1 X131.496 Y93.726 E13.0703
G1 X131.889 Y94.232 E13.09161
G1 X132.573 Y95.231 E13.13187
G1 X133.091 Y96.092 E13.16529
G1 X133.188 Y96.257 E13.17166
G1 X133.677 Y97.106 E13.20425
G1 X134.008 Y97.698 E13.22681
G1 X134.529 Y98.775 E13.2666
G1 X134.873 Y99.606 E13.29651
G1 X134.942 Y99.777 E13.30265
G1 X135.341 Y100.795 E13.33901
G1 X135.57 Y101.404 E13.36065
G1 X135.924 Y102.542 E13.40029
G1 X136.162 Y103.503 E13.43322
G1 X136.207 Y103.693 E13.43971
G1 X136.426 Y104.661 E13.47272
G1 X136.564 Y105.306 E13.49466
G1 X136.747 Y106.5 E13.53484
G1 X136.839 Y107.494 E13.56804
G1 X136.916 Y108.494 E13.6014
G1 X136.967 Y109.32 E13.62892
G1 X136.969 Y110.521 E13.66887
G1 X136.9 Y111.709 E13.70845
G1 X136.836 Y112.57 E13.73716
G1 X136.766 Y113.361 E13.76358
G1 X136.591 Y114.537 E13.80312
G1 X136.397 Y115.464 E13.83462
G1 X136.36 Y115.634 E13.84041
G1 X136.162 Y116.506 E13.87015
G1 X135.971 Y117.295 E13.89715
G1 X135.623 Y118.435 E13.93679
G1 X135.295 Y119.32 E13.96818
G1 X135.223 Y119.51 E13.97494
G1 X134.874 Y120.397 E14.00665
G1 X134.584 Y121.105 E14.03209
G1 X134.07 Y122.176 E14.0716
G1 X133.606 Y123.014 E14.10346
G1 X133.521 Y123.165 E14.10923
G1 X133.078 Y123.934 E14.13874
G1 X132.67 Y124.621 E14.16532
G1 X131.998 Y125.612 E14.20514
G1 X131.388 Y126.407 E14.23847
G1 X131.267 Y126.562 E14.24501
G1 X130.666 Y127.314 E14.27703
G1 X130.219 Y127.858 E14.30045
G1 X129.415 Y128.728 E14.33985
G1 X128.733 Y129.385 E14.37135
G1 X128.597 Y129.513 E14.37756
G1 X127.826 Y130.228 E14.41253
G1 X127.341 Y130.665 E14.43425
G1 X126.412 Y131.408 E14.47381
G1 X125.608 Y131.978 E14.50659
G1 X125.453 Y132.086 E14.51287
G1 X124.581 Y132.679 E14.54795
