;FLAVOR:Marlin
;TIME:1357
;Filament used: 0.638374m
;Layer height: 0.16
;MINX:79.65
;MINY:88.8
;MINZ:0.2
;MAXX:140.35
;MAXY:131.2
;MAXZ:6.92
;Generated with Cura_SteamEngine 4.7.1
M140 S60
M105
M190 S60
M104 S200
M105
M109 S200
M82 ;absolute extrusion mode
; Ender 3 Custom Start G-code
G92 E0 ; Reset Extruder
G28 ; Home all axes
G1 Z2.0 F3000 ; Move Z Axis up little to prevent scratching of Heat Bed
G1 X0.1 Y20 Z0.3 F5000.0 ; Move to start position
G1 X0.1 Y200.0 Z0.3 F1500.0 E15 ; Draw the first line
G1 X0.4 Y200.0 Z0.3 F5000.0 ; Move to side a little
G1 X0.4 Y20 Z0.3 F1500.0 E30 ; Draw the second line
G92 E0 ; Reset Extruder
G1 Z2.0 F3000 ; Move Z Axis up little to prevent scratching of Heat Bed
G1 X5 Y20 Z0.3 F5000.0 ; Move over to prevent blob squish
G92 E0
G92 E0
G1 F1500 E-6.5
;LAYER_COUNT:37
;LAYER:0
M107
G0 F6000 X83.536 Y91.427 Z0.2
;TYPE:SKIRT
G1 F1500 E0
G1 F1200 X84.276 Y90.851 E0.03119
G1 X85.062 Y90.339 E0.06239
G1 X85.889 Y89.897 E0.09358
G1 X86.751 Y89.527 E0.12478
G1 X87.641 Y89.231 E0.15597
G1 X88.553 Y89.013 E0.18716
G1 X89.48 Y88.872 E0.21835
G1 X90.351 Y88.813 E0.24738
G1 X90.672 Y88.804 E0.25806
G1 X90.98 Y88.8 E0.26831
G1 X128.801 Y88.801 E1.52624
G1 X129.499 Y88.811 E1.54946
G1 X130.435 Y88.865 E1.58064
G1 X131.363 Y88.997 E1.61182
G1 X132.277 Y89.209 E1.64303
G1 X133.169 Y89.498 E1.67421
G1 X134.034 Y89.861 E1.70541
G1 X134.864 Y90.297 E1.73659
G1 X135.655 Y90.802 E1.76781
G1 X136.399 Y91.373 E1.799
G1 X137.092 Y92.005 E1.8302
G1 X137.729 Y92.693 E1.86138
G1 X138.304 Y93.434 E1.89258
G1 X138.815 Y94.22 E1.92376
G1 X139.257 Y95.048 E1.95498
G1 X139.626 Y95.91 E1.98616
G1 X139.921 Y96.8 E2.01735
G1 X140.139 Y97.712 E2.04854
G1 X140.279 Y98.64 E2.07975
G1 X140.337 Y99.501 E2.10845
G1 X140.346 Y99.821 E2.1191
G1 X140.35 Y100.13 E2.12938
G1 X140.349 Y119.6 E2.77695
G1 X140.34 Y120.327 E2.80114
G1 X140.289 Y121.264 E2.83235
G1 X140.157 Y122.192 E2.86352
G1 X139.948 Y123.106 E2.89471
G1 X139.661 Y123.999 E2.9259
G1 X139.299 Y124.865 E2.95712
G1 X138.865 Y125.696 E2.9883
G1 X138.361 Y126.487 E3.0195
G1 X137.792 Y127.232 E3.05068
G1 X137.161 Y127.927 E3.0819
G1 X136.474 Y128.565 E3.11308
G1 X135.735 Y129.142 E3.14427
G1 X134.949 Y129.654 E3.17547
G1 X134.123 Y130.097 E3.20664
G1 X133.261 Y130.469 E3.23787
G1 X132.372 Y130.765 E3.26903
G1 X131.46 Y130.985 E3.30024
G1 X130.533 Y131.126 E3.33142
G1 X129.649 Y131.187 E3.36089
G1 X129.328 Y131.196 E3.37157
G1 X129.02 Y131.2 E3.38182
G1 X91.215 Y131.199 E4.63922
G1 X90.517 Y131.19 E4.66244
G1 X89.581 Y131.138 E4.69362
G1 X88.652 Y131.006 E4.72483
G1 X87.738 Y130.796 E4.75602
G1 X86.845 Y130.509 E4.78721
G1 X85.98 Y130.146 E4.81842
G1 X85.149 Y129.712 E4.8496
G1 X84.358 Y129.208 E4.88079
G1 X83.613 Y128.638 E4.91199
G1 X82.919 Y128.007 E4.94319
G1 X82.282 Y127.32 E4.97435
G1 X81.705 Y126.58 E5.00556
G1 X81.193 Y125.794 E5.03676
G1 X80.75 Y124.967 E5.06796
G1 X80.379 Y124.106 E5.09915
G1 X80.083 Y123.216 E5.13034
G1 X79.864 Y122.304 E5.16154
G1 X79.723 Y121.377 E5.19272
G1 X79.663 Y120.488 E5.22236
G1 X79.654 Y120.155 E5.23344
G1 X79.65 Y119.858 E5.24332
G1 X79.651 Y100.325 E5.89299
G1 X79.66 Y99.66 E5.91511
G1 X79.713 Y98.724 E5.94629
G1 X79.845 Y97.795 E5.9775
G1 X80.056 Y96.881 E6.0087
G1 X80.344 Y95.989 E6.03987
G1 X80.707 Y95.124 E6.07107
G1 X81.142 Y94.293 E6.10227
G1 X81.646 Y93.503 E6.13344
G1 X82.216 Y92.758 E6.16464
G1 X82.848 Y92.064 E6.19586
G1 X83.536 Y91.427 E6.22704
G0 F6000 X83.924 Y91.623
G1 F1200 X84.66 Y91.07 E6.25766
G1 X85.441 Y90.582 E6.28829
G1 X86.261 Y90.164 E6.3189
G1 X87.115 Y89.819 E6.34954
G1 X87.995 Y89.549 E6.38015
G1 X88.895 Y89.357 E6.41076
G1 X89.809 Y89.243 E6.4414
G1 X90.362 Y89.213 E6.45982
G1 X90.683 Y89.204 E6.4705
G1 X90.98 Y89.2 E6.48038
G1 X128.643 Y89.2 E7.73305
G1 X129.493 Y89.211 E7.76133
G1 X130.412 Y89.264 E7.79194
G1 X131.323 Y89.397 E7.82257
G1 X132.219 Y89.608 E7.85318
G1 X133.093 Y89.896 E7.88379
G1 X133.94 Y90.259 E7.91444
G1 X134.751 Y90.694 E7.94505
G1 X135.521 Y91.198 E7.97566
G1 X136.245 Y91.767 E8.00628
G1 X136.917 Y92.397 E8.03692
G1 X137.532 Y93.082 E8.06754
G1 X138.085 Y93.818 E8.09816
G1 X138.572 Y94.599 E8.12877
G1 X138.989 Y95.42 E8.1594
G1 X139.334 Y96.274 E8.19003
G1 X139.603 Y97.154 E8.22064
G1 X139.795 Y98.055 E8.25128
G1 X139.908 Y98.968 E8.28188
G1 X139.937 Y99.512 E8.3
G1 X139.946 Y99.832 E8.31064
G1 X139.95 Y100.13 E8.32056
G1 X139.949 Y119.595 E8.96796
G1 X139.94 Y120.322 E8.99215
G1 X139.889 Y121.241 E9.02276
G1 X139.758 Y122.153 E9.0534
G1 X139.548 Y123.049 E9.08401
G1 X139.262 Y123.924 E9.11463
G1 X138.901 Y124.771 E9.14525
G1 X138.467 Y125.583 E9.17588
G1 X137.965 Y126.355 E9.2065
G1 X137.397 Y127.08 E9.23714
G1 X136.769 Y127.753 E9.26775
G1 X136.085 Y128.369 E9.29837
G1 X135.35 Y128.923 E9.32898
G1 X134.57 Y129.412 E9.3596
G1 X133.75 Y129.831 E9.39023
G1 X132.897 Y130.177 E9.42084
G1 X132.017 Y130.448 E9.45147
G1 X131.117 Y130.641 E9.48208
G1 X130.203 Y130.756 E9.51272
G1 X129.638 Y130.787 E9.53154
G1 X129.317 Y130.796 E9.54222
G1 X129.02 Y130.8 E9.5521
G1 X91.22 Y130.799 E10.80934
G1 X90.522 Y130.79 E10.83255
G1 X89.603 Y130.738 E10.86317
G1 X88.692 Y130.607 E10.89378
G1 X87.796 Y130.397 E10.92439
G1 X86.921 Y130.11 E10.95502
G1 X86.074 Y129.748 E10.98565
G1 X85.262 Y129.314 E11.01628
G1 X84.491 Y128.812 E11.04688
G1 X83.766 Y128.244 E11.07751
G1 X83.093 Y127.615 E11.10815
G1 X82.478 Y126.931 E11.13874
G1 X81.924 Y126.196 E11.16935
G1 X81.436 Y125.415 E11.19998
G1 X81.017 Y124.595 E11.23061
G1 X80.671 Y123.742 E11.26123
G1 X80.401 Y122.862 E11.29184
G1 X80.208 Y121.961 E11.32249
G1 X80.094 Y121.048 E11.35309
G1 X80.063 Y120.477 E11.37211
G1 X80.054 Y120.144 E11.38319
G1 X80.05 Y119.858 E11.39271
G1 X80.051 Y100.331 E12.04218
G1 X80.06 Y99.666 E12.0643
G1 X80.112 Y98.746 E12.09494
G1 X80.244 Y97.835 E12.12556
G1 X80.455 Y96.939 E12.15618
G1 X80.742 Y96.064 E12.18681
G1 X81.105 Y95.218 E12.21742
G1 X81.539 Y94.406 E12.24805
G1 X82.042 Y93.635 E12.27867
G1 X82.611 Y92.911 E12.30929
G1 X83.239 Y92.239 E12.33988
G1 X83.924 Y91.623 E12.37052
G0 F6000 X84.312 Y91.824
G1 F1200 X85.044 Y91.294 E12.40058
G1 X85.819 Y90.831 E12.43061
G1 X86.632 Y90.438 E12.46064
G1 X87.477 Y90.118 E12.4907
G1 X88.346 Y89.875 E12.52071
G1 X89.234 Y89.709 E12.55075
G1 X90.373 Y89.613 E12.58877
G1 X90.694 Y89.604 E12.59945
G1 X90.98 Y89.6 E12.60897
G1 X128.643 Y89.6 E13.86164
G1 X129.487 Y89.611 E13.88972
G1 X130.389 Y89.664 E13.91977
G1 X131.282 Y89.796 E13.94979
G1 X132.16 Y90.007 E13.97983
G1 X133.016 Y90.295 E14.00987
G1 X133.843 Y90.657 E14.03989
G1 X134.635 Y91.092 E14.06994
G1 X135.386 Y91.594 E14.09999
G1 X136.089 Y92.161 E14.13003
G1 X136.739 Y92.788 E14.16007
G1 X137.331 Y93.47 E14.1901
G1 X137.861 Y94.201 E14.22014
G1 X138.323 Y94.977 E14.25017
G1 X138.716 Y95.79 E14.28021
G1 X139.034 Y96.635 E14.31024
G1 X139.277 Y97.505 E14.34028
G1 X139.442 Y98.393 E14.37032
G1 X139.537 Y99.523 E14.40804
G1 X139.546 Y99.843 E14.41868
G1 X139.55 Y100.13 E14.42823
G1 X139.549 Y119.59 E15.07547
G1 X139.54 Y120.317 E15.09966
G1 X139.489 Y121.219 E15.1297
G1 X139.358 Y122.113 E15.15976
G1 X139.149 Y122.991 E15.18977
G1 X138.863 Y123.848 E15.21982
G1 X138.502 Y124.676 E15.24987
G1 X138.07 Y125.468 E15.27987
G1 X137.569 Y126.22 E15.30993
G1 X137.003 Y126.924 E15.33997
G1 X136.378 Y127.575 E15.36999
G1 X135.697 Y128.169 E15.40004
G1 X134.966 Y128.7 E15.43009
G1 X134.192 Y129.164 E15.46011
G1 X133.379 Y129.558 E15.49016
G1 X132.535 Y129.878 E15.52018
G1 X131.665 Y130.123 E15.55024
G1 X130.778 Y130.289 E15.58025
G1 X129.627 Y130.387 E15.61867
G1 X129.306 Y130.396 E15.62936
G1 X129.02 Y130.4 E15.63887
G1 X91.225 Y130.399 E16.89594
G1 X90.527 Y130.39 E16.91915
G1 X89.626 Y130.339 E16.94917
G1 X88.732 Y130.207 E16.97923
G1 X87.854 Y129.998 E17.00924
G1 X86.997 Y129.711 E17.0393
G1 X86.17 Y129.35 E17.06932
G1 X85.377 Y128.917 E17.09937
G1 X84.626 Y128.416 E17.12939
G1 X83.922 Y127.85 E17.15944
G1 X83.271 Y127.224 E17.18948
G1 X82.678 Y126.543 E17.21951
G1 X82.148 Y125.812 E17.24954
G1 X81.684 Y125.037 E17.27959
G1 X81.29 Y124.224 E17.30963
G1 X80.97 Y123.38 E17.33966
G1 X80.726 Y122.51 E17.36971
G1 X80.56 Y121.622 E17.39975
G1 X80.463 Y120.467 E17.43831
G1 X80.454 Y120.134 E17.44939
G1 X80.45 Y119.858 E17.45857
G1 X80.451 Y100.336 E18.10787
G1 X80.46 Y99.671 E18.12999
G1 X80.512 Y98.769 E18.16004
G1 X80.644 Y97.876 E18.19006
G1 X80.854 Y96.998 E18.22009
G1 X81.141 Y96.141 E18.25015
G1 X81.503 Y95.314 E18.28018
G1 X81.936 Y94.522 E18.3102
G1 X82.438 Y93.771 E18.34024
G1 X83.005 Y93.067 E18.37031
G1 X83.631 Y92.417 E18.40032
G1 X84.312 Y91.824 E18.43036
G1 F1500 E11.93036
;MESH:Servo Tutucu dnm1.stl
G0 F6000 X108.125 Y104.465
G0 X108.125 Y102.63
G0 X121.678 Y103.472
G0 X121.683 Y110.23
G0 X123.35 Y112.008
;TYPE:WALL-INNER
G1 F1500 E18.43036
G1 F1200 X123.869 Y111.941 E18.44776
G1 X124.355 Y111.739 E18.46527
G1 X124.77 Y111.42 E18.48268
G1 X125.089 Y111.005 E18.50009
G1 X125.291 Y110.519 E18.51759
G1 X125.358 Y110 E18.535
G1 X125.291 Y109.481 E18.5524
G1 X125.089 Y108.995 E18.56991
G1 X124.77 Y108.58 E18.58732
G1 X124.355 Y108.261 E18.60473
G1 X123.869 Y108.059 E18.62223
G1 X123.35 Y107.992 E18.63964
G1 X122.831 Y108.059 E18.65704
G1 X122.626 Y108.144 E18.66442
G1 X122.35 Y108.259 E18.67437
G1 X122.35 Y107.96 E18.68018
G1 X122.35 Y102.8 E18.8518
G1 X97.65 Y102.8 E19.67333
G1 X97.65 Y107.96 E19.84495
G1 X97.65 Y108.259 E19.85489
G1 X97.374 Y108.144 E19.86071
G1 X97.169 Y108.059 E19.86809
G1 X96.65 Y107.992 E19.88549
G1 X96.131 Y108.059 E19.9029
G1 X95.645 Y108.261 E19.9204
G1 X95.23 Y108.58 E19.93781
G1 X94.911 Y108.995 E19.95522
G1 X94.709 Y109.481 E19.97273
G1 X94.642 Y110 E19.99013
G1 X94.709 Y110.519 E20.00754
G1 X94.911 Y111.005 E20.02504
G1 X95.23 Y111.42 E20.04245
G1 X95.645 Y111.739 E20.05986
G1 X96.131 Y111.941 E20.07737
G1 X96.65 Y112.008 E20.09477
G1 X97.169 Y111.941 E20.11218
G1 X97.374 Y111.856 E20.11956
G1 X97.65 Y111.741 E20.1295
G1 X97.65 Y112.04 E20.13532
G1 X97.65 Y117.2 E20.30694
G1 X122.35 Y117.2 E21.12846
G1 X122.35 Y112.04 E21.30009
G1 X122.35 Y111.741 E21.31003
G1 X122.626 Y111.856 E21.31584
G1 X122.831 Y111.941 E21.32322
G1 X123.35 Y112.008 E21.34063
G0 F6000 X123.35 Y111.605
G1 F1200 X123.765 Y111.551 E21.35455
G1 X124.153 Y111.39 E21.36852
G1 X124.485 Y111.135 E21.38244
G1 X124.74 Y110.803 E21.39637
G1 X124.901 Y110.415 E21.41034
G1 X124.955 Y110 E21.42426
G1 X124.901 Y109.585 E21.43818
G1 X124.74 Y109.197 E21.45215
G1 X124.485 Y108.865 E21.46607
G1 X124.153 Y108.61 E21.48
G1 X123.765 Y108.449 E21.49397
G1 X123.35 Y108.395 E21.50789
G1 X122.935 Y108.449 E21.52181
G1 X122.547 Y108.61 E21.53578
G1 X122.322 Y108.783 E21.54522
G1 X122.215 Y108.865 E21.5497
G1 X121.96 Y109.197 E21.56363
G1 X121.95 Y109.221 E21.56449
G1 X121.95 Y109.197
G1 X121.95 Y108.865 E21.56779
G1 X121.95 Y108.73 E21.5716
G1 X121.95 Y103.2 E21.75553
G1 X98.05 Y103.2 E22.55045
G1 X98.05 Y108.73 E22.73438
G1 X98.05 Y108.865 E22.73887
G1 X98.05 Y109.197 E22.74991
G1 X98.05 Y109.221 E22.75071
G1 X98.04 Y109.197
G1 X97.785 Y108.865 E22.75687
G1 X97.678 Y108.783 E22.76068
G1 X97.453 Y108.61 E22.77012
G1 X97.065 Y108.449 E22.78409
G1 X96.65 Y108.395 E22.79801
G1 X96.235 Y108.449 E22.81193
G1 X95.847 Y108.61 E22.8259
G1 X95.515 Y108.865 E22.83982
G1 X95.26 Y109.197 E22.85375
G1 X95.099 Y109.585 E22.86772
G1 X95.045 Y110 E22.88164
G1 X95.099 Y110.415 E22.89556
G1 X95.26 Y110.803 E22.90953
G1 X95.515 Y111.135 E22.92345
G1 X95.847 Y111.39 E22.93738
G1 X96.235 Y111.551 E22.95135
G1 X96.65 Y111.605 E22.96527
G1 X97.065 Y111.551 E22.97919
G1 X97.453 Y111.39 E22.99316
G1 X97.678 Y111.217 E23.0026
G1 X97.785 Y111.135 E23.00708
G1 X98.04 Y110.803 E23.02101
G1 X98.05 Y110.779 E23.02187
G1 X98.05 Y110.803
G1 X98.05 Y111.135 E23.02516
G1 X98.05 Y111.27 E23.02898
G1 X98.05 Y116.8 E23.21291
G1 X121.95 Y116.8 E24.00783
G1 X121.95 Y111.27 E24.19175
G1 X121.95 Y111.135 E24.19624
G1 X121.95 Y110.803 E24.20729
G1 X121.95 Y110.779 E24.20809
G1 X121.96 Y110.803
G1 X122.215 Y111.135 E24.21425
G1 X122.322 Y111.217 E24.21805
G1 X122.547 Y111.39 E24.22749
G1 X122.935 Y111.551 E24.24147
G1 X123.35 Y111.605 E24.25539
G0 F6000 X123.35 Y111.202
;TYPE:WALL-OUTER
G1 F1200 X123.661 Y111.161 E24.26582
G1 X123.951 Y111.041 E24.27626
G1 X124.2 Y110.85 E24.2867
G1 X124.391 Y110.601 E24.29713
G1 X124.511 Y110.311 E24.30757
G1 X124.552 Y110 E24.31801
G1 X124.511 Y109.689 E24.32844
G1 X124.391 Y109.399 E24.33888
G1 X124.2 Y109.15 E24.34931
G1 X123.951 Y108.959 E24.35975
G1 X123.661 Y108.839 E24.37019
G1 X123.35 Y108.798 E24.38062
G1 X123.039 Y108.839 E24.39106
G1 X122.749 Y108.959 E24.4015
G1 X122.5 Y109.15 E24.41193
G1 X122.309 Y109.399 E24.42237
G1 X122.189 Y109.689 E24.43281
G1 X122.148 Y110 E24.44324
G1 X122.189 Y110.311 E24.45368
G1 X122.309 Y110.601 E24.46412
G1 X122.5 Y110.85 E24.47455
G1 X122.749 Y111.041 E24.48499
G1 X123.039 Y111.161 E24.49543
G1 X123.35 Y111.202 E24.50586
G0 F6000 X123.35 Y111.642
G1 F1500 E18.00586
G0 F6000 X121.688 Y112.117
G0 X121.678 Y116.528
G0 X98.322 Y116.528
G0 X98.313 Y112.387
G0 X96.623 Y111.4
G0 X96.65 Y111.202
G1 F1500 E24.50586
G1 F1200 X96.961 Y111.161 E24.5163
G1 X97.251 Y111.041 E24.52674
G1 X97.5 Y110.85 E24.53717
G1 X97.691 Y110.601 E24.54761
G1 X97.811 Y110.311 E24.55805
G1 X97.852 Y110 E24.56848
G1 X97.811 Y109.689 E24.57892
G1 X97.691 Y109.399 E24.58935
G1 X97.5 Y109.15 E24.59979
G1 X97.251 Y108.959 E24.61023
G1 X96.961 Y108.839 E24.62067
G1 X96.65 Y108.798 E24.6311
G1 X96.339 Y108.839 E24.64154
G1 X96.049 Y108.959 E24.65197
G1 X95.8 Y109.15 E24.66241
G1 X95.609 Y109.399 E24.67285
G1 X95.489 Y109.689 E24.68329
G1 X95.448 Y110 E24.69372
G1 X95.489 Y110.311 E24.70415
G1 X95.609 Y110.601 E24.71459
G1 X95.8 Y110.85 E24.72503
G1 X96.049 Y111.041 E24.73547
G1 X96.339 Y111.161 E24.74591
G1 X96.65 Y111.202 E24.75634
G0 F6000 X96.65 Y111.642
G1 F1500 E18.25634
G0 F6000 X97.462 Y112.023
G0 X98.25 Y116.4
G0 X98.45 Y116.4
G1 F1500 E24.75634
G1 F1200 X121.55 Y116.4 E25.52465
G1 X121.55 Y103.6 E25.95038
G1 X98.45 Y103.6 E26.71869
G1 X98.45 Y116.4 E27.14442
G1 F1500 E20.64442
G0 F6000 X98.25 Y116.4
G0 X98.307 Y116.503
G0 X122.546 Y117.396
G0 X122.546 Y118.99
G0 X128.35 Y119.2
;TYPE:WALL-INNER
G1 F1500 E27.14442
G1 F1200 X91.65 Y119.2 E28.36506
G1 X91.65 Y100.8 E28.97705
G1 X128.35 Y100.8 E30.1977
G1 X128.35 Y119.2 E30.80968
G0 F6000 X128.75 Y119.6
G1 F1200 X91.25 Y119.6 E32.05694
G1 X91.25 Y100.4 E32.69553
G1 X128.75 Y100.4 E33.94279
G1 X128.75 Y119.6 E34.58138
G0 F6000 X129.15 Y120
;TYPE:WALL-OUTER
G1 F1200 X90.85 Y120 E35.85525
G1 X90.85 Y100 E36.52045
G1 X129.15 Y100 E37.79431
G1 X129.15 Y120 E38.45952
G0 F6000 X128.98 Y119.83
G0 X128.24 Y118.81
G0 X127.96 Y118.81
;TYPE:SKIN
G1 F1200 X92.04 Y118.81 E39.65422
G1 X92.04 Y101.19 E40.24026
G1 X127.96 Y101.19 E41.43497
G1 X127.96 Y118.81 E42.02101
G1 F1500 E35.52101
G0 F6000 X128.24 Y118.81
G0 X128.168 Y119.018
G0 X122.46 Y118.99
G0 X122.46 Y117.39
G0 X122.74 Y117.59
G1 F1500 E42.02101
G1 F1200 X122.74 Y112.322 E42.19623
G1 X123.35 Y112.402 E42.21669
G1 X123.97 Y112.321 E42.23748
G1 X124.552 Y112.08 E42.25844
G1 X125.049 Y111.699 E42.27926
G1 X125.43 Y111.202 E42.30009
G1 X125.671 Y110.62 E42.32104
G1 X125.752 Y110 E42.34184
G1 X125.671 Y109.38 E42.36264
G1 X125.43 Y108.798 E42.38359
G1 X125.049 Y108.301 E42.40442
G1 X124.552 Y107.92 E42.42525
G1 X123.97 Y107.679 E42.4462
G1 X123.35 Y107.598 E42.46699
G1 X122.74 Y107.678 E42.48746
G1 X122.74 Y102.41 E42.66267
G1 X97.26 Y102.41 E43.51014
G1 X97.26 Y107.678 E43.68535
G1 X96.65 Y107.598 E43.70582
G1 X96.03 Y107.679 E43.72661
G1 X95.448 Y107.92 E43.74756
G1 X94.951 Y108.301 E43.76839
G1 X94.57 Y108.798 E43.78922
G1 X94.329 Y109.38 E43.81017
G1 X94.248 Y110 E43.83097
G1 X94.329 Y110.62 E43.85177
G1 X94.57 Y111.202 E43.87272
G1 X94.951 Y111.699 E43.89355
G1 X95.448 Y112.08 E43.91437
G1 X96.03 Y112.321 E43.93533
G1 X96.65 Y112.402 E43.95612
G1 X97.26 Y112.322 E43.97658
G1 X97.26 Y117.59 E44.1518
G1 X122.74 Y117.59 E44.99927
G1 F1500 E38.49927
G0 F6000 X122.46 Y117.34
G0 X122.538 Y112.023
G0 X124.299 Y110.949
G0 X124.512 Y110.67
G0 X124.587 Y110.488
G0 X124.906 Y108.444
G0 X128.14 Y108.444
G0 X128.24 Y101.778
G0 X127.799 Y101.778
